<?xml version="1.0" encoding="UTF-8"?>
<map version="1.10" tiledversion="1.10.2" orientation="staggered" renderorder="right-down" width="52" height="114" tilewidth="64" tileheight="32" infinite="0" staggeraxis="y" staggerindex="odd" nextlayerid="5" nextobjectid="226">
 <tileset firstgid="1" name="sol" tilewidth="64" tileheight="32" tilecount="32" columns="8">
  <image source="../sol/sol_tuiles.png" width="512" height="128"/>
 </tileset>
 <tileset firstgid="33" name="decor" tilewidth="300" tileheight="226" tilecount="37" columns="0" objectalignment="bottom">
  <grid orientation="orthogonal" width="1" height="1"/>
  <tile id="0" x="0" y="0" width="160" height="192">
   <image source="../decor/arbre_anime.png" width="960" height="192"/>
  </tile>
  <tile id="1">
   <image source="../decor/arbre_mort_1.png" width="126" height="178"/>
  </tile>
  <tile id="2">
   <image source="../decor/arbre_mort_2.png" width="118" height="138"/>
  </tile>
  <tile id="3">
   <image source="../decor/arbre_sombre_1.png" width="118" height="148"/>
  </tile>
  <tile id="4">
   <image source="../decor/arbre_sombre_2.png" width="98" height="126"/>
  </tile>
  <tile id="5">
   <image source="../decor/bras_1.png" width="122" height="124"/>
  </tile>
  <tile id="6">
   <image source="../decor/bras_2.png" width="90" height="114"/>
  </tile>
  <tile id="7">
   <image source="../decor/bras_3.png" width="62" height="106"/>
  </tile>
  <tile id="8">
   <image source="../decor/buisson.png" width="128" height="116"/>
  </tile>
  <tile id="9">
   <image source="../decor/cranes.png" width="142" height="102"/>
  </tile>
  <tile id="10">
   <image source="../decor/cristal.png" width="92" height="100"/>
  </tile>
  <tile id="11">
   <image source="../decor/os_1.png" width="96" height="96"/>
  </tile>
  <tile id="12">
   <image source="../decor/os_2.png" width="68" height="70"/>
  </tile>
  <tile id="13">
   <image source="../decor/os_3.png" width="60" height="128"/>
  </tile>
  <tile id="14">
   <image source="../decor/os_4.png" width="86" height="78"/>
  </tile>
  <tile id="15">
   <image source="../sol/paves_1.png" width="176" height="88"/>
  </tile>
  <tile id="16">
   <image source="../sol/paves_2.png" width="112" height="56"/>
  </tile>
  <tile id="17">
   <image source="../sol/paves_3.png" width="128" height="64"/>
  </tile>
  <tile id="18">
   <image source="../decor/porte_crane.png" width="62" height="94"/>
  </tile>
  <tile id="19">
   <image source="../decor/rocher_1.png" width="114" height="112"/>
  </tile>
  <tile id="20">
   <image source="../decor/rocher_2.png" width="90" height="88"/>
  </tile>
  <tile id="21">
   <image source="../decor/rocher_3.png" width="68" height="66"/>
  </tile>
  <tile id="22">
   <image source="../decor/roi_dechu.png" width="300" height="226"/>
  </tile>
  <tile id="23">
   <image source="../decor/ronces_1.png" width="220" height="160"/>
  </tile>
  <tile id="24">
   <image source="../decor/ronces_2.png" width="116" height="92"/>
  </tile>
  <tile id="25">
   <image source="../decor/ruine_1.png" width="160" height="190"/>
  </tile>
  <tile id="26">
   <image source="../decor/ruine_2.png" width="158" height="124"/>
  </tile>
  <tile id="27">
   <image source="../decor/ruine_3.png" width="110" height="108"/>
  </tile>
  <tile id="28">
   <image source="../decor/ruine_4.png" width="94" height="92"/>
  </tile>
  <tile id="29">
   <image source="../decor/souche.png" width="82" height="62"/>
  </tile>
  <tile id="30">
   <image source="../decor/tombe_1.png" width="32" height="36"/>
  </tile>
  <tile id="31">
   <image source="../decor/tombe_2.png" width="32" height="38"/>
  </tile>
  <tile id="32">
   <image source="../decor/tombe_3.png" width="28" height="34"/>
  </tile>
  <tile id="33">
   <image source="../decor/tombe_4.png" width="32" height="56"/>
  </tile>
  <tile id="34">
   <image source="../decor/tombe_5.png" width="36" height="40"/>
  </tile>
  <tile id="35">
   <image source="../decor/tronc.png" width="168" height="78"/>
  </tile>
  <tile id="36" x="0" y="0" width="192" height="224">
   <image source="../decor/trone_liche.png" width="1152" height="224"/>
  </tile>
 </tileset>
 <layer id="1" name="sol" width="52" height="114" offsetx="-32" offsety="-16">
  <data encoding="csv">
1,2,3,4,1,2,3,4,1,2,3,4,1,2,3,4,1,2,3,4,1,2,3,4,1,2,3,4,1,2,3,4,1,2,3,4,1,2,3,4,1,2,3,4,1,2,3,4,1,2,3,4,
5,6,7,8,5,6,7,8,5,6,7,8,5,6,7,8,5,6,7,8,5,6,7,8,5,6,7,8,5,6,7,8,5,6,7,8,5,6,7,8,5,6,7,8,5,6,7,8,5,6,7,8,
9,10,11,12,9,10,11,12,9,10,11,12,9,10,11,12,9,10,11,12,9,10,11,12,9,10,11,12,9,10,11,12,9,10,11,12,9,10,11,12,9,10,11,12,9,10,11,12,9,10,11,12,
13,14,15,16,13,14,15,16,13,14,15,16,13,14,15,16,13,14,15,16,13,14,15,16,13,14,15,16,13,14,15,16,13,14,15,16,13,14,15,16,13,14,15,16,13,14,15,16,13,14,15,16,
17,18,19,20,17,18,19,20,17,18,19,20,17,18,19,20,17,18,19,20,17,18,19,20,17,18,19,20,17,18,19,20,17,18,19,20,17,18,19,20,17,18,19,20,17,18,19,20,17,18,19,20,
21,22,23,24,21,22,23,24,21,22,23,24,21,22,23,24,21,22,23,24,21,22,23,24,21,22,23,24,21,22,23,24,21,22,23,24,21,22,23,24,21,22,23,24,21,22,23,24,21,22,23,24,
25,26,27,28,25,26,27,28,25,26,27,28,25,26,27,28,25,26,27,28,25,26,27,28,25,26,27,28,25,26,27,28,25,26,27,28,25,26,27,28,25,26,27,28,25,26,27,28,25,26,27,28,
29,30,31,32,29,30,31,32,29,30,31,32,29,30,31,32,29,30,31,32,29,30,31,32,29,30,31,32,29,30,31,32,29,30,31,32,29,30,31,32,29,30,31,32,29,30,31,32,29,30,31,32,
1,2,3,4,1,2,3,4,1,2,3,4,1,2,3,4,1,2,3,4,1,2,3,4,1,2,3,4,1,2,3,4,1,2,3,4,1,2,3,4,1,2,3,4,1,2,3,4,1,2,3,4,
5,6,7,8,5,6,7,8,5,6,7,8,5,6,7,8,5,6,7,8,5,6,7,8,5,6,7,8,5,6,7,8,5,6,7,8,5,6,7,8,5,6,7,8,5,6,7,8,5,6,7,8,
9,10,11,12,9,10,11,12,9,10,11,12,9,10,11,12,9,10,11,12,9,10,11,12,9,10,11,12,9,10,11,12,9,10,11,12,9,10,11,12,9,10,11,12,9,10,11,12,9,10,11,12,
13,14,15,16,13,14,15,16,13,14,15,16,13,14,15,16,13,14,15,16,13,14,15,16,13,14,15,16,13,14,15,16,13,14,15,16,13,14,15,16,13,14,15,16,13,14,15,16,13,14,15,16,
17,18,19,20,17,18,19,20,17,18,19,20,17,18,19,20,17,18,19,20,17,18,19,20,17,18,19,20,17,18,19,20,17,18,19,20,17,18,19,20,17,18,19,20,17,18,19,20,17,18,19,20,
21,22,23,24,21,22,23,24,21,22,23,24,21,22,23,24,21,22,23,24,21,22,23,24,21,22,23,24,21,22,23,24,21,22,23,24,21,22,23,24,21,22,23,24,21,22,23,24,21,22,23,24,
25,26,27,28,25,26,27,28,25,26,27,28,25,26,27,28,25,26,27,28,25,26,27,28,25,26,27,28,25,26,27,28,25,26,27,28,25,26,27,28,25,26,27,28,25,26,27,28,25,26,27,28,
29,30,31,32,29,30,31,32,29,30,31,32,29,30,31,32,29,30,31,32,29,30,31,32,29,30,31,32,29,30,31,32,29,30,31,32,29,30,31,32,29,30,31,32,29,30,31,32,29,30,31,32,
1,2,3,4,1,2,3,4,1,2,3,4,1,2,3,4,1,2,3,4,1,2,3,4,1,2,3,4,1,2,3,4,1,2,3,4,1,2,3,4,1,2,3,4,1,2,3,4,1,2,3,4,
5,6,7,8,5,6,7,8,5,6,7,8,5,6,7,8,5,6,7,8,5,6,7,8,5,6,7,8,5,6,7,8,5,6,7,8,5,6,7,8,5,6,7,8,5,6,7,8,5,6,7,8,
9,10,11,12,9,10,11,12,9,10,11,12,9,10,11,12,9,10,11,12,9,10,11,12,9,10,11,12,9,10,11,12,9,10,11,12,9,10,11,12,9,10,11,12,9,10,11,12,9,10,11,12,
13,14,15,16,13,14,15,16,13,14,15,16,13,14,15,16,13,14,15,16,13,14,15,16,13,14,15,16,13,14,15,16,13,14,15,16,13,14,15,16,13,14,15,16,13,14,15,16,13,14,15,16,
17,18,19,20,17,18,19,20,17,18,19,20,17,18,19,20,17,18,19,20,17,18,19,20,17,18,19,20,17,18,19,20,17,18,19,20,17,18,19,20,17,18,19,20,17,18,19,20,17,18,19,20,
21,22,23,24,21,22,23,24,21,22,23,24,21,22,23,24,21,22,23,24,21,22,23,24,21,22,23,24,21,22,23,24,21,22,23,24,21,22,23,24,21,22,23,24,21,22,23,24,21,22,23,24,
25,26,27,28,25,26,27,28,25,26,27,28,25,26,27,28,25,26,27,28,25,26,27,28,25,26,27,28,25,26,27,28,25,26,27,28,25,26,27,28,25,26,27,28,25,26,27,28,25,26,27,28,
29,30,31,32,29,30,31,32,29,30,31,32,29,30,31,32,29,30,31,32,29,30,31,32,29,30,31,32,29,30,31,32,29,30,31,32,29,30,31,32,29,30,31,32,29,30,31,32,29,30,31,32,
1,2,3,4,1,2,3,4,1,2,3,4,1,2,3,4,1,2,3,4,1,2,3,4,1,2,3,4,1,2,3,4,1,2,3,4,1,2,3,4,1,2,3,4,1,2,3,4,1,2,3,4,
5,6,7,8,5,6,7,8,5,6,7,8,5,6,7,8,5,6,7,8,5,6,7,8,5,6,7,8,5,6,7,8,5,6,7,8,5,6,7,8,5,6,7,8,5,6,7,8,5,6,7,8,
9,10,11,12,9,10,11,12,9,10,11,12,9,10,11,12,9,10,11,12,9,10,11,12,9,10,11,12,9,10,11,12,9,10,11,12,9,10,11,12,9,10,11,12,9,10,11,12,9,10,11,12,
13,14,15,16,13,14,15,16,13,14,15,16,13,14,15,16,13,14,15,16,13,14,15,16,13,14,15,16,13,14,15,16,13,14,15,16,13,14,15,16,13,14,15,16,13,14,15,16,13,14,15,16,
17,18,19,20,17,18,19,20,17,18,19,20,17,18,19,20,17,18,19,20,17,18,19,20,17,18,19,20,17,18,19,20,17,18,19,20,17,18,19,20,17,18,19,20,17,18,19,20,17,18,19,20,
21,22,23,24,21,22,23,24,21,22,23,24,21,22,23,24,21,22,23,24,21,22,23,24,21,22,23,24,21,22,23,24,21,22,23,24,21,22,23,24,21,22,23,24,21,22,23,24,21,22,23,24,
25,26,27,28,25,26,27,28,25,26,27,28,25,26,27,28,25,26,27,28,25,26,27,28,25,26,27,28,25,26,27,28,25,26,27,28,25,26,27,28,25,26,27,28,25,26,27,28,25,26,27,28,
29,30,31,32,29,30,31,32,29,30,31,32,29,30,31,32,29,30,31,32,29,30,31,32,29,30,31,32,29,30,31,32,29,30,31,32,29,30,31,32,29,30,31,32,29,30,31,32,29,30,31,32,
1,2,3,4,1,2,3,4,1,2,3,4,1,2,3,4,1,2,3,4,1,2,3,4,1,2,3,4,1,2,3,4,1,2,3,4,1,2,3,4,1,2,3,4,1,2,3,4,1,2,3,4,
5,6,7,8,5,6,7,8,5,6,7,8,5,6,7,8,5,6,7,8,5,6,7,8,5,6,7,8,5,6,7,8,5,6,7,8,5,6,7,8,5,6,7,8,5,6,7,8,5,6,7,8,
9,10,11,12,9,10,11,12,9,10,11,12,9,10,11,12,9,10,11,12,9,10,11,12,9,10,11,12,9,10,11,12,9,10,11,12,9,10,11,12,9,10,11,12,9,10,11,12,9,10,11,12,
13,14,15,16,13,14,15,16,13,14,15,16,13,14,15,16,13,14,15,16,13,14,15,16,13,14,15,16,13,14,15,16,13,14,15,16,13,14,15,16,13,14,15,16,13,14,15,16,13,14,15,16,
17,18,19,20,17,18,19,20,17,18,19,20,17,18,19,20,17,18,19,20,17,18,19,20,17,18,19,20,17,18,19,20,17,18,19,20,17,18,19,20,17,18,19,20,17,18,19,20,17,18,19,20,
21,22,23,24,21,22,23,24,21,22,23,24,21,22,23,24,21,22,23,24,21,22,23,24,21,22,23,24,21,22,23,24,21,22,23,24,21,22,23,24,21,22,23,24,21,22,23,24,21,22,23,24,
25,26,27,28,25,26,27,28,25,26,27,28,25,26,27,28,25,26,27,28,25,26,27,28,25,26,27,28,25,26,27,28,25,26,27,28,25,26,27,28,25,26,27,28,25,26,27,28,25,26,27,28,
29,30,31,32,29,30,31,32,29,30,31,32,29,30,31,32,29,30,31,32,29,30,31,32,29,30,31,32,29,30,31,32,29,30,31,32,29,30,31,32,29,30,31,32,29,30,31,32,29,30,31,32,
1,2,3,4,1,2,3,4,1,2,3,4,1,2,3,4,1,2,3,4,1,2,3,4,1,2,3,4,1,2,3,4,1,2,3,4,1,2,3,4,1,2,3,4,1,2,3,4,1,2,3,4,
5,6,7,8,5,6,7,8,5,6,7,8,5,6,7,8,5,6,7,8,5,6,7,8,5,6,7,8,5,6,7,8,5,6,7,8,5,6,7,8,5,6,7,8,5,6,7,8,5,6,7,8,
9,10,11,12,9,10,11,12,9,10,11,12,9,10,11,12,9,10,11,12,9,10,11,12,9,10,11,12,9,10,11,12,9,10,11,12,9,10,11,12,9,10,11,12,9,10,11,12,9,10,11,12,
13,14,15,16,13,14,15,16,13,14,15,16,13,14,15,16,13,14,15,16,13,14,15,16,13,14,15,16,13,14,15,16,13,14,15,16,13,14,15,16,13,14,15,16,13,14,15,16,13,14,15,16,
17,18,19,20,17,18,19,20,17,18,19,20,17,18,19,20,17,18,19,20,17,18,19,20,17,18,19,20,17,18,19,20,17,18,19,20,17,18,19,20,17,18,19,20,17,18,19,20,17,18,19,20,
21,22,23,24,21,22,23,24,21,22,23,24,21,22,23,24,21,22,23,24,21,22,23,24,21,22,23,24,21,22,23,24,21,22,23,24,21,22,23,24,21,22,23,24,21,22,23,24,21,22,23,24,
25,26,27,28,25,26,27,28,25,26,27,28,25,26,27,28,25,26,27,28,25,26,27,28,25,26,27,28,25,26,27,28,25,26,27,28,25,26,27,28,25,26,27,28,25,26,27,28,25,26,27,28,
29,30,31,32,29,30,31,32,29,30,31,32,29,30,31,32,29,30,31,32,29,30,31,32,29,30,31,32,29,30,31,32,29,30,31,32,29,30,31,32,29,30,31,32,29,30,31,32,29,30,31,32,
1,2,3,4,1,2,3,4,1,2,3,4,1,2,3,4,1,2,3,4,1,2,3,4,1,2,3,4,1,2,3,4,1,2,3,4,1,2,3,4,1,2,3,4,1,2,3,4,1,2,3,4,
5,6,7,8,5,6,7,8,5,6,7,8,5,6,7,8,5,6,7,8,5,6,7,8,5,6,7,8,5,6,7,8,5,6,7,8,5,6,7,8,5,6,7,8,5,6,7,8,5,6,7,8,
9,10,11,12,9,10,11,12,9,10,11,12,9,10,11,12,9,10,11,12,9,10,11,12,9,10,11,12,9,10,11,12,9,10,11,12,9,10,11,12,9,10,11,12,9,10,11,12,9,10,11,12,
13,14,15,16,13,14,15,16,13,14,15,16,13,14,15,16,13,14,15,16,13,14,15,16,13,14,15,16,13,14,15,16,13,14,15,16,13,14,15,16,13,14,15,16,13,14,15,16,13,14,15,16,
17,18,19,20,17,18,19,20,17,18,19,20,17,18,19,20,17,18,19,20,17,18,19,20,17,18,19,20,17,18,19,20,17,18,19,20,17,18,19,20,17,18,19,20,17,18,19,20,17,18,19,20,
21,22,23,24,21,22,23,24,21,22,23,24,21,22,23,24,21,22,23,24,21,22,23,24,21,22,23,24,21,22,23,24,21,22,23,24,21,22,23,24,21,22,23,24,21,22,23,24,21,22,23,24,
25,26,27,28,25,26,27,28,25,26,27,28,25,26,27,28,25,26,27,28,25,26,27,28,25,26,27,28,25,26,27,28,25,26,27,28,25,26,27,28,25,26,27,28,25,26,27,28,25,26,27,28,
29,30,31,32,29,30,31,32,29,30,31,32,29,30,31,32,29,30,31,32,29,30,31,32,29,30,31,32,29,30,31,32,29,30,31,32,29,30,31,32,29,30,31,32,29,30,31,32,29,30,31,32,
1,2,3,4,1,2,3,4,1,2,3,4,1,2,3,4,1,2,3,4,1,2,3,4,1,2,3,4,1,2,3,4,1,2,3,4,1,2,3,4,1,2,3,4,1,2,3,4,1,2,3,4,
5,6,7,8,5,6,7,8,5,6,7,8,5,6,7,8,5,6,7,8,5,6,7,8,5,6,7,8,5,6,7,8,5,6,7,8,5,6,7,8,5,6,7,8,5,6,7,8,5,6,7,8,
9,10,11,12,9,10,11,12,9,10,11,12,9,10,11,12,9,10,11,12,9,10,11,12,9,10,11,12,9,10,11,12,9,10,11,12,9,10,11,12,9,10,11,12,9,10,11,12,9,10,11,12,
13,14,15,16,13,14,15,16,13,14,15,16,13,14,15,16,13,14,15,16,13,14,15,16,13,14,15,16,13,14,15,16,13,14,15,16,13,14,15,16,13,14,15,16,13,14,15,16,13,14,15,16,
17,18,19,20,17,18,19,20,17,18,19,20,17,18,19,20,17,18,19,20,17,18,19,20,17,18,19,20,17,18,19,20,17,18,19,20,17,18,19,20,17,18,19,20,17,18,19,20,17,18,19,20,
21,22,23,24,21,22,23,24,21,22,23,24,21,22,23,24,21,22,23,24,21,22,23,24,21,22,23,24,21,22,23,24,21,22,23,24,21,22,23,24,21,22,23,24,21,22,23,24,21,22,23,24,
25,26,27,28,25,26,27,28,25,26,27,28,25,26,27,28,25,26,27,28,25,26,27,28,25,26,27,28,25,26,27,28,25,26,27,28,25,26,27,28,25,26,27,28,25,26,27,28,25,26,27,28,
29,30,31,32,29,30,31,32,29,30,31,32,29,30,31,32,29,30,31,32,29,30,31,32,29,30,31,32,29,30,31,32,29,30,31,32,29,30,31,32,29,30,31,32,29,30,31,32,29,30,31,32,
1,2,3,4,1,2,3,4,1,2,3,4,1,2,3,4,1,2,3,4,1,2,3,4,1,2,3,4,1,2,3,4,1,2,3,4,1,2,3,4,1,2,3,4,1,2,3,4,1,2,3,4,
5,6,7,8,5,6,7,8,5,6,7,8,5,6,7,8,5,6,7,8,5,6,7,8,5,6,7,8,5,6,7,8,5,6,7,8,5,6,7,8,5,6,7,8,5,6,7,8,5,6,7,8,
9,10,11,12,9,10,11,12,9,10,11,12,9,10,11,12,9,10,11,12,9,10,11,12,9,10,11,12,9,10,11,12,9,10,11,12,9,10,11,12,9,10,11,12,9,10,11,12,9,10,11,12,
13,14,15,16,13,14,15,16,13,14,15,16,13,14,15,16,13,14,15,16,13,14,15,16,13,14,15,16,13,14,15,16,13,14,15,16,13,14,15,16,13,14,15,16,13,14,15,16,13,14,15,16,
17,18,19,20,17,18,19,20,17,18,19,20,17,18,19,20,17,18,19,20,17,18,19,20,17,18,19,20,17,18,19,20,17,18,19,20,17,18,19,20,17,18,19,20,17,18,19,20,17,18,19,20,
21,22,23,24,21,22,23,24,21,22,23,24,21,22,23,24,21,22,23,24,21,22,23,24,21,22,23,24,21,22,23,24,21,22,23,24,21,22,23,24,21,22,23,24,21,22,23,24,21,22,23,24,
25,26,27,28,25,26,27,28,25,26,27,28,25,26,27,28,25,26,27,28,25,26,27,28,25,26,27,28,25,26,27,28,25,26,27,28,25,26,27,28,25,26,27,28,25,26,27,28,25,26,27,28,
29,30,31,32,29,30,31,32,29,30,31,32,29,30,31,32,29,30,31,32,29,30,31,32,29,30,31,32,29,30,31,32,29,30,31,32,29,30,31,32,29,30,31,32,29,30,31,32,29,30,31,32,
1,2,3,4,1,2,3,4,1,2,3,4,1,2,3,4,1,2,3,4,1,2,3,4,1,2,3,4,1,2,3,4,1,2,3,4,1,2,3,4,1,2,3,4,1,2,3,4,1,2,3,4,
5,6,7,8,5,6,7,8,5,6,7,8,5,6,7,8,5,6,7,8,5,6,7,8,5,6,7,8,5,6,7,8,5,6,7,8,5,6,7,8,5,6,7,8,5,6,7,8,5,6,7,8,
9,10,11,12,9,10,11,12,9,10,11,12,9,10,11,12,9,10,11,12,9,10,11,12,9,10,11,12,9,10,11,12,9,10,11,12,9,10,11,12,9,10,11,12,9,10,11,12,9,10,11,12,
13,14,15,16,13,14,15,16,13,14,15,16,13,14,15,16,13,14,15,16,13,14,15,16,13,14,15,16,13,14,15,16,13,14,15,16,13,14,15,16,13,14,15,16,13,14,15,16,13,14,15,16,
17,18,19,20,17,18,19,20,17,18,19,20,17,18,19,20,17,18,19,20,17,18,19,20,17,18,19,20,17,18,19,20,17,18,19,20,17,18,19,20,17,18,19,20,17,18,19,20,17,18,19,20,
21,22,23,24,21,22,23,24,21,22,23,24,21,22,23,24,21,22,23,24,21,22,23,24,21,22,23,24,21,22,23,24,21,22,23,24,21,22,23,24,21,22,23,24,21,22,23,24,21,22,23,24,
25,26,27,28,25,26,27,28,25,26,27,28,25,26,27,28,25,26,27,28,25,26,27,28,25,26,27,28,25,26,27,28,25,26,27,28,25,26,27,28,25,26,27,28,25,26,27,28,25,26,27,28,
29,30,31,32,29,30,31,32,29,30,31,32,29,30,31,32,29,30,31,32,29,30,31,32,29,30,31,32,29,30,31,32,29,30,31,32,29,30,31,32,29,30,31,32,29,30,31,32,29,30,31,32,
1,2,3,4,1,2,3,4,1,2,3,4,1,2,3,4,1,2,3,4,1,2,3,4,1,2,3,4,1,2,3,4,1,2,3,4,1,2,3,4,1,2,3,4,1,2,3,4,1,2,3,4,
5,6,7,8,5,6,7,8,5,6,7,8,5,6,7,8,5,6,7,8,5,6,7,8,5,6,7,8,5,6,7,8,5,6,7,8,5,6,7,8,5,6,7,8,5,6,7,8,5,6,7,8,
9,10,11,12,9,10,11,12,9,10,11,12,9,10,11,12,9,10,11,12,9,10,11,12,9,10,11,12,9,10,11,12,9,10,11,12,9,10,11,12,9,10,11,12,9,10,11,12,9,10,11,12,
13,14,15,16,13,14,15,16,13,14,15,16,13,14,15,16,13,14,15,16,13,14,15,16,13,14,15,16,13,14,15,16,13,14,15,16,13,14,15,16,13,14,15,16,13,14,15,16,13,14,15,16,
17,18,19,20,17,18,19,20,17,18,19,20,17,18,19,20,17,18,19,20,17,18,19,20,17,18,19,20,17,18,19,20,17,18,19,20,17,18,19,20,17,18,19,20,17,18,19,20,17,18,19,20,
21,22,23,24,21,22,23,24,21,22,23,24,21,22,23,24,21,22,23,24,21,22,23,24,21,22,23,24,21,22,23,24,21,22,23,24,21,22,23,24,21,22,23,24,21,22,23,24,21,22,23,24,
25,26,27,28,25,26,27,28,25,26,27,28,25,26,27,28,25,26,27,28,25,26,27,28,25,26,27,28,25,26,27,28,25,26,27,28,25,26,27,28,25,26,27,28,25,26,27,28,25,26,27,28,
29,30,31,32,29,30,31,32,29,30,31,32,29,30,31,32,29,30,31,32,29,30,31,32,29,30,31,32,29,30,31,32,29,30,31,32,29,30,31,32,29,30,31,32,29,30,31,32,29,30,31,32,
1,2,3,4,1,2,3,4,1,2,3,4,1,2,3,4,1,2,3,4,1,2,3,4,1,2,3,4,1,2,3,4,1,2,3,4,1,2,3,4,1,2,3,4,1,2,3,4,1,2,3,4,
5,6,7,8,5,6,7,8,5,6,7,8,5,6,7,8,5,6,7,8,5,6,7,8,5,6,7,8,5,6,7,8,5,6,7,8,5,6,7,8,5,6,7,8,5,6,7,8,5,6,7,8,
9,10,11,12,9,10,11,12,9,10,11,12,9,10,11,12,9,10,11,12,9,10,11,12,9,10,11,12,9,10,11,12,9,10,11,12,9,10,11,12,9,10,11,12,9,10,11,12,9,10,11,12,
13,14,15,16,13,14,15,16,13,14,15,16,13,14,15,16,13,14,15,16,13,14,15,16,13,14,15,16,13,14,15,16,13,14,15,16,13,14,15,16,13,14,15,16,13,14,15,16,13,14,15,16,
17,18,19,20,17,18,19,20,17,18,19,20,17,18,19,20,17,18,19,20,17,18,19,20,17,18,19,20,17,18,19,20,17,18,19,20,17,18,19,20,17,18,19,20,17,18,19,20,17,18,19,20,
21,22,23,24,21,22,23,24,21,22,23,24,21,22,23,24,21,22,23,24,21,22,23,24,21,22,23,24,21,22,23,24,21,22,23,24,21,22,23,24,21,22,23,24,21,22,23,24,21,22,23,24,
25,26,27,28,25,26,27,28,25,26,27,28,25,26,27,28,25,26,27,28,25,26,27,28,25,26,27,28,25,26,27,28,25,26,27,28,25,26,27,28,25,26,27,28,25,26,27,28,25,26,27,28,
29,30,31,32,29,30,31,32,29,30,31,32,29,30,31,32,29,30,31,32,29,30,31,32,29,30,31,32,29,30,31,32,29,30,31,32,29,30,31,32,29,30,31,32,29,30,31,32,29,30,31,32,
1,2,3,4,1,2,3,4,1,2,3,4,1,2,3,4,1,2,3,4,1,2,3,4,1,2,3,4,1,2,3,4,1,2,3,4,1,2,3,4,1,2,3,4,1,2,3,4,1,2,3,4,
5,6,7,8,5,6,7,8,5,6,7,8,5,6,7,8,5,6,7,8,5,6,7,8,5,6,7,8,5,6,7,8,5,6,7,8,5,6,7,8,5,6,7,8,5,6,7,8,5,6,7,8,
9,10,11,12,9,10,11,12,9,10,11,12,9,10,11,12,9,10,11,12,9,10,11,12,9,10,11,12,9,10,11,12,9,10,11,12,9,10,11,12,9,10,11,12,9,10,11,12,9,10,11,12,
13,14,15,16,13,14,15,16,13,14,15,16,13,14,15,16,13,14,15,16,13,14,15,16,13,14,15,16,13,14,15,16,13,14,15,16,13,14,15,16,13,14,15,16,13,14,15,16,13,14,15,16,
17,18,19,20,17,18,19,20,17,18,19,20,17,18,19,20,17,18,19,20,17,18,19,20,17,18,19,20,17,18,19,20,17,18,19,20,17,18,19,20,17,18,19,20,17,18,19,20,17,18,19,20,
21,22,23,24,21,22,23,24,21,22,23,24,21,22,23,24,21,22,23,24,21,22,23,24,21,22,23,24,21,22,23,24,21,22,23,24,21,22,23,24,21,22,23,24,21,22,23,24,21,22,23,24,
25,26,27,28,25,26,27,28,25,26,27,28,25,26,27,28,25,26,27,28,25,26,27,28,25,26,27,28,25,26,27,28,25,26,27,28,25,26,27,28,25,26,27,28,25,26,27,28,25,26,27,28,
29,30,31,32,29,30,31,32,29,30,31,32,29,30,31,32,29,30,31,32,29,30,31,32,29,30,31,32,29,30,31,32,29,30,31,32,29,30,31,32,29,30,31,32,29,30,31,32,29,30,31,32,
1,2,3,4,1,2,3,4,1,2,3,4,1,2,3,4,1,2,3,4,1,2,3,4,1,2,3,4,1,2,3,4,1,2,3,4,1,2,3,4,1,2,3,4,1,2,3,4,1,2,3,4,
5,6,7,8,5,6,7,8,5,6,7,8,5,6,7,8,5,6,7,8,5,6,7,8,5,6,7,8,5,6,7,8,5,6,7,8,5,6,7,8,5,6,7,8,5,6,7,8,5,6,7,8,
9,10,11,12,9,10,11,12,9,10,11,12,9,10,11,12,9,10,11,12,9,10,11,12,9,10,11,12,9,10,11,12,9,10,11,12,9,10,11,12,9,10,11,12,9,10,11,12,9,10,11,12,
13,14,15,16,13,14,15,16,13,14,15,16,13,14,15,16,13,14,15,16,13,14,15,16,13,14,15,16,13,14,15,16,13,14,15,16,13,14,15,16,13,14,15,16,13,14,15,16,13,14,15,16,
17,18,19,20,17,18,19,20,17,18,19,20,17,18,19,20,17,18,19,20,17,18,19,20,17,18,19,20,17,18,19,20,17,18,19,20,17,18,19,20,17,18,19,20,17,18,19,20,17,18,19,20,
21,22,23,24,21,22,23,24,21,22,23,24,21,22,23,24,21,22,23,24,21,22,23,24,21,22,23,24,21,22,23,24,21,22,23,24,21,22,23,24,21,22,23,24,21,22,23,24,21,22,23,24,
25,26,27,28,25,26,27,28,25,26,27,28,25,26,27,28,25,26,27,28,25,26,27,28,25,26,27,28,25,26,27,28,25,26,27,28,25,26,27,28,25,26,27,28,25,26,27,28,25,26,27,28,
29,30,31,32,29,30,31,32,29,30,31,32,29,30,31,32,29,30,31,32,29,30,31,32,29,30,31,32,29,30,31,32,29,30,31,32,29,30,31,32,29,30,31,32,29,30,31,32,29,30,31,32,
1,2,3,4,1,2,3,4,1,2,3,4,1,2,3,4,1,2,3,4,1,2,3,4,1,2,3,4,1,2,3,4,1,2,3,4,1,2,3,4,1,2,3,4,1,2,3,4,1,2,3,4,
5,6,7,8,5,6,7,8,5,6,7,8,5,6,7,8,5,6,7,8,5,6,7,8,5,6,7,8,5,6,7,8,5,6,7,8,5,6,7,8,5,6,7,8,5,6,7,8,5,6,7,8
</data>
 </layer>
 <objectgroup id="2" name="paves">
  <object id="1" gid="2147483696" name="paves_1" x="1900" y="944" width="176" height="88"/>
  <object id="2" gid="48" name="paves_1" x="1842.71" y="1032.17" width="176" height="88"/>
  <object id="3" gid="2147483697" name="paves_2" x="1692.71" y="1070.66" width="112" height="56"/>
  <object id="4" gid="2147483697" name="paves_2" x="1507.29" y="1070.66" width="112" height="56"/>
  <object id="5" gid="50" name="paves_3" x="1357.29" y="1020.17" width="128" height="64"/>
  <object id="6" gid="2147483698" name="paves_3" x="1300" y="932" width="128" height="64"/>
  <object id="7" gid="2147483698" name="paves_3" x="1357.29" y="843.83" width="128" height="64"/>
  <object id="8" gid="49" name="paves_2" x="1507.29" y="785.34" width="112" height="56"/>
  <object id="9" gid="48" name="paves_1" x="1692.71" y="801.34" width="176" height="88"/>
  <object id="10" gid="2147483697" name="paves_2" x="1842.71" y="839.83" width="112" height="56"/>
  <object id="11" gid="2147483696" name="paves_1" x="2019.98" y="946.03" width="176" height="88"/>
  <object id="12" gid="2147483697" name="paves_2" x="2135.97" y="930.59" width="112" height="56"/>
  <object id="13" gid="49" name="paves_2" x="2257.97" y="931.18" width="112" height="56"/>
  <object id="14" gid="50" name="paves_3" x="2400.96" y="935.88" width="128" height="64"/>
  <object id="15" gid="2147483697" name="paves_2" x="2514.96" y="932.43" width="112" height="56"/>
  <object id="16" gid="2147483696" name="paves_1" x="2637.95" y="949.02" width="176" height="88"/>
  <object id="17" gid="50" name="paves_3" x="1667.77" y="1139.25" width="128" height="64"/>
  <object id="18" gid="2147483696" name="paves_1" x="1691.98" y="1225.26" width="176" height="88"/>
  <object id="19" gid="2147483697" name="paves_2" x="1715.05" y="1279.83" width="112" height="56"/>
  <object id="20" gid="2147483696" name="paves_1" x="1735.06" y="1357.02" width="176" height="88"/>
  <object id="21" gid="49" name="paves_2" x="1762.33" y="1424.41" width="112" height="56"/>
  <object id="22" gid="50" name="paves_3" x="1180.33" y="923.71" width="128" height="64"/>
  <object id="23" gid="2147483697" name="paves_2" x="1059.42" y="917.32" width="112" height="56"/>
  <object id="24" gid="2147483696" name="paves_1" x="911.54" y="930.39" width="176" height="88"/>
  <object id="25" gid="48" name="paves_1" x="779.64" y="927.79" width="176" height="88"/>
  <object id="26" gid="2147483696" name="paves_1" x="643.75" y="925.1" width="176" height="88"/>
  <object id="27" gid="2147483698" name="paves_3" x="1623" y="722.32" width="128" height="64"/>
  <object id="28" gid="50" name="paves_3" x="1630.5" y="653.92" width="128" height="64"/>
  <object id="29" gid="50" name="paves_3" x="1637.68" y="588.52" width="128" height="64"/>
  <object id="30" gid="2147483697" name="paves_2" x="1645.13" y="516.62" width="112" height="56"/>
  <object id="31" gid="49" name="paves_2" x="1654.22" y="433.74" width="112" height="56"/>
 </objectgroup>
 <objectgroup id="3" name="decor">
  <object id="32" gid="67" name="tombe_5" x="1197" y="131" width="36" height="40"/>
  <object id="33" gid="63" name="tombe_1" x="1275" y="131.6" width="32" height="36"/>
  <object id="34" gid="65" name="tombe_3" x="1235" y="134.4" width="28" height="34"/>
  <object id="35" gid="2147483702" name="rocher_3" x="432" y="141.6" width="68" height="66"/>
  <object id="36" gid="65" name="tombe_3" x="1197" y="166.4" width="28" height="34"/>
  <object id="37" gid="44" name="os_1" x="1146" y="221.6" width="96" height="96"/>
  <object id="38" gid="34" name="arbre_mort_1" x="217" y="232.8" width="126" height="178"/>
  <object id="39" gid="52" name="rocher_1" x="2639" y="245.2" width="114" height="112"/>
  <object id="40" gid="33" name="arbre_anime" x="1365" y="261.36" width="160" height="192"/>
  <object id="41" gid="2147483705" name="ronces_2" x="2043" y="257.2" width="116" height="92"/>
  <object id="42" gid="2147483688" name="bras_3" x="311" y="268.6" width="62" height="106"/>
  <object id="43" gid="63" name="tombe_1" x="43" y="264.6" width="32" height="36"/>
  <object id="44" gid="64" name="tombe_2" x="121" y="265.8" width="32" height="38"/>
  <object id="45" gid="67" name="tombe_5" x="79" y="267" width="36" height="40"/>
  <object id="46" gid="64" name="tombe_2" x="132" y="293.8" width="32" height="38"/>
  <object id="47" gid="67" name="tombe_5" x="84" y="296" width="36" height="40"/>
  <object id="48" gid="64" name="tombe_2" x="35" y="296.8" width="32" height="38"/>
  <object id="49" gid="35" name="arbre_mort_2" x="2392" y="306.8" width="118" height="138"/>
  <object id="50" gid="45" name="os_2" x="400" y="324" width="68" height="70"/>
  <object id="51" gid="66" name="tombe_4" x="42" y="325.6" width="32" height="56"/>
  <object id="52" gid="2147483716" name="tronc" x="641" y="337.8" width="168" height="78"/>
  <object id="53" gid="34" name="arbre_mort_1" x="1618" y="352.8" width="126" height="178"/>
  <object id="54" gid="2147483708" name="ruine_3" x="1280" y="365.8" width="110" height="108"/>
  <object id="55" gid="2147483709" name="ruine_4" x="847" y="375.2" width="94" height="92"/>
  <object id="56" gid="2147483700" name="rocher_1" x="2149" y="385.2" width="114" height="112"/>
  <object id="57" gid="2147483707" name="ruine_2" x="1388" y="413.4" width="158" height="124"/>
  <object id="58" gid="2147483695" name="os_4" x="1890" y="423.8" width="86" height="78"/>
  <object id="59" gid="2147483695" name="os_4" x="2582" y="426.8" width="86" height="78"/>
  <object id="60" gid="36" name="arbre_sombre_1" x="963" y="440.8" width="118" height="148"/>
  <object id="61" gid="2147483684" name="arbre_sombre_1" x="1574" y="444.8" width="118" height="148"/>
  <object id="62" gid="43" name="cristal" x="2857" y="444" width="92" height="100"/>
  <object id="63" gid="33" name="arbre_anime" x="2288" y="457.36" width="160" height="192"/>
  <object id="64" gid="59" name="ruine_2" x="118" y="460.4" width="158" height="124"/>
  <object id="65" gid="2147483699" name="porte_crane" x="755" y="495.4" width="62" height="94"/>
  <object id="66" gid="2147483694" name="os_3" x="454" y="502.8" width="60" height="128"/>
  <object id="67" gid="45" name="os_2" x="109" y="523" width="68" height="70"/>
  <object id="68" gid="2147483689" name="buisson" x="1887" y="546.6" width="128" height="116"/>
  <object id="69" gid="45" name="os_2" x="1080" y="543" width="68" height="70"/>
  <object id="70" gid="2147483706" name="ruine_1" x="2204" y="563" width="160" height="190"/>
  <object id="71" gid="52" name="rocher_1" x="296" y="572.2" width="114" height="112"/>
  <object id="72" gid="62" name="souche" x="593" y="581.2" width="82" height="62"/>
  <object id="73" gid="52" name="rocher_1" x="2390" y="591.2" width="114" height="112"/>
  <object id="74" gid="41" name="buisson" x="986" y="599.6" width="128" height="116"/>
  <object id="75" gid="40" name="bras_3" x="2872" y="599.6" width="62" height="106"/>
  <object id="76" gid="34" name="arbre_mort_1" x="1156" y="631.8" width="126" height="178"/>
  <object id="77" gid="38" name="bras_1" x="290" y="633.4" width="122" height="124"/>
  <object id="78" gid="2147483683" name="arbre_mort_2" x="1693" y="655.8" width="118" height="138"/>
  <object id="79" gid="62" name="souche" x="585" y="653.2" width="82" height="62"/>
  <object id="80" gid="68" name="tronc" x="720" y="669.8" width="168" height="78"/>
  <object id="81" gid="63" name="tombe_1" x="2082" y="686.6" width="32" height="36"/>
  <object id="82" gid="64" name="tombe_2" x="2002" y="687.8" width="32" height="38"/>
  <object id="83" gid="67" name="tombe_5" x="2045" y="688" width="36" height="40"/>
  <object id="84" gid="2147483699" name="porte_crane" x="1207" y="702.4" width="62" height="94"/>
  <object id="85" gid="2147483704" name="ronces_1" x="345" y="723" width="220" height="160"/>
  <object id="86" gid="63" name="tombe_1" x="2036" y="711.6" width="32" height="36"/>
  <object id="87" gid="63" name="tombe_1" x="2085" y="711.6" width="32" height="36"/>
  <object id="88" gid="64" name="tombe_2" x="1993" y="714.8" width="32" height="38"/>
  <object id="89" gid="66" name="tombe_4" x="1997" y="748.6" width="32" height="56"/>
  <object id="90" gid="53" name="rocher_2" x="711" y="762.8" width="90" height="88"/>
  <object id="91" gid="51" name="porte_crane" x="856" y="770.4" width="62" height="94"/>
  <object id="92" gid="55" name="roi_dechu" x="2717.16" y="797.46" width="300" height="226"/>
  <object id="93" gid="53" name="rocher_2" x="2355" y="775.8" width="90" height="88"/>
  <object id="94" gid="43" name="cristal" x="3034" y="790" width="92" height="100"/>
  <object id="95" gid="68" name="tronc" x="576" y="831.8" width="168" height="78"/>
  <object id="96" gid="60" name="ruine_3" x="287" y="836.8" width="110" height="108"/>
  <object id="97" gid="63" name="tombe_1" x="2494" y="931.6" width="32" height="36"/>
  <object id="98" gid="64" name="tombe_2" x="2543" y="932.8" width="32" height="38"/>
  <object id="99" gid="57" name="ronces_2" x="2742" y="940.2" width="116" height="92"/>
  <object id="100" gid="67" name="tombe_5" x="2453" y="938" width="36" height="40"/>
  <object id="101" gid="2147483693" name="os_2" x="2908" y="944" width="68" height="70"/>
  <object id="102" gid="2147483705" name="ronces_2" x="504" y="958.2" width="116" height="92"/>
  <object id="103" gid="2147483682" name="arbre_mort_1" x="2204" y="974.8" width="126" height="178"/>
  <object id="104" gid="63" name="tombe_1" x="2497" y="966.6" width="32" height="36"/>
  <object id="105" gid="66" name="tombe_4" x="2539" y="968.6" width="32" height="56"/>
  <object id="106" gid="67" name="tombe_5" x="2449" y="969" width="36" height="40"/>
  <object id="107" gid="42" name="cranes" x="316" y="980.2" width="142" height="102"/>
  <object id="108" gid="2147483709" name="ruine_4" x="3116" y="988.2" width="94" height="92"/>
  <object id="109" gid="65" name="tombe_3" x="2459" y="992.4" width="28" height="34"/>
  <object id="110" gid="36" name="arbre_sombre_1" x="2982" y="1013.8" width="118" height="148"/>
  <object id="111" gid="46" name="os_3" x="762" y="1050.8" width="60" height="128"/>
  <object id="112" gid="2147483687" name="bras_2" x="1911" y="1111.4" width="90" height="114"/>
  <object id="113" gid="37" name="arbre_sombre_2" x="3086" y="1128.6" width="98" height="126"/>
  <object id="114" gid="56" name="ronces_1" x="2065" y="1162" width="220" height="160"/>
  <object id="115" gid="57" name="ronces_2" x="1311" y="1166.2" width="116" height="92"/>
  <object id="116" gid="69" name="trone_liche" x="572.46" y="1176.12" width="192" height="224"/>
  <object id="117" gid="66" name="tombe_4" x="2820" y="1178.6" width="32" height="56"/>
  <object id="118" gid="67" name="tombe_5" x="2903" y="1180" width="36" height="40"/>
  <object id="119" gid="67" name="tombe_5" x="2864" y="1182" width="36" height="40"/>
  <object id="120" gid="62" name="souche" x="306" y="1198.2" width="82" height="62"/>
  <object id="121" gid="2147483685" name="arbre_sombre_2" x="1106" y="1208.6" width="98" height="126"/>
  <object id="122" gid="66" name="tombe_4" x="2864" y="1209.6" width="32" height="56"/>
  <object id="123" gid="63" name="tombe_1" x="2821" y="1211.6" width="32" height="36"/>
  <object id="124" gid="2147483691" name="cristal" x="877" y="1229" width="92" height="100"/>
  <object id="125" gid="2147483702" name="rocher_3" x="3077" y="1232.6" width="68" height="66"/>
  <object id="126" gid="39" name="bras_2" x="2664" y="1278.4" width="90" height="114"/>
  <object id="127" gid="57" name="ronces_2" x="431" y="1284.2" width="116" height="92"/>
  <object id="128" gid="41" name="buisson" x="2885" y="1295.6" width="128" height="116"/>
  <object id="129" gid="41" name="buisson" x="1010" y="1302.6" width="128" height="116"/>
  <object id="130" gid="2147483691" name="cristal" x="618" y="1329" width="92" height="100"/>
  <object id="131" gid="38" name="bras_1" x="450" y="1364.4" width="122" height="124"/>
  <object id="132" gid="2147483706" name="ruine_1" x="1442" y="1376" width="160" height="190"/>
  <object id="133" gid="54" name="rocher_3" x="2795" y="1389.6" width="68" height="66"/>
  <object id="134" gid="33" name="arbre_anime" x="1065" y="1428.36" width="160" height="192"/>
  <object id="135" gid="2147483710" name="souche" x="2056" y="1441.2" width="82" height="62"/>
  <object id="136" gid="35" name="arbre_mort_2" x="2288" y="1450.8" width="118" height="138"/>
  <object id="137" gid="36" name="arbre_sombre_1" x="2893" y="1471.8" width="118" height="148"/>
  <object id="138" gid="61" name="ruine_4" x="159" y="1473.2" width="94" height="92"/>
  <object id="139" gid="2147483685" name="arbre_sombre_2" x="2766" y="1477.6" width="98" height="126"/>
  <object id="140" gid="2147483681" name="arbre_anime" x="2599" y="1506.36" width="160" height="192"/>
  <object id="141" gid="35" name="arbre_mort_2" x="460" y="1512.8" width="118" height="138"/>
  <object id="142" gid="2147483685" name="arbre_sombre_2" x="1922" y="1515.6" width="98" height="126"/>
  <object id="143" gid="53" name="rocher_2" x="811" y="1547.8" width="90" height="88"/>
  <object id="144" gid="39" name="bras_2" x="390" y="1568.4" width="90" height="114"/>
  <object id="145" gid="34" name="arbre_mort_1" x="1816" y="1575.8" width="126" height="178"/>
  <object id="146" gid="2147483683" name="arbre_mort_2" x="1798" y="1633.8" width="118" height="138"/>
  <object id="147" gid="36" name="arbre_sombre_1" x="1940" y="1644.8" width="118" height="148"/>
  <object id="148" gid="2147483690" name="cranes" x="646" y="1642.2" width="142" height="102"/>
  <object id="149" gid="60" name="ruine_3" x="953" y="1647.8" width="110" height="108"/>
  <object id="150" gid="2147483688" name="bras_3" x="365" y="1649.6" width="62" height="106"/>
  <object id="151" gid="54" name="rocher_3" x="1524" y="1646.6" width="68" height="66"/>
  <object id="152" gid="2147483704" name="ronces_1" x="2722" y="1657" width="220" height="160"/>
  <object id="153" gid="46" name="os_3" x="1648" y="1682.8" width="60" height="128"/>
  <object id="154" gid="47" name="os_4" x="2308" y="1694.8" width="86" height="78"/>
  <object id="155" gid="2147483692" name="os_1" x="436" y="1697.6" width="96" height="96"/>
  <object id="156" gid="2147483702" name="rocher_3" x="877" y="1698.6" width="68" height="66"/>
  <object id="157" gid="37" name="arbre_sombre_2" x="1599" y="1751.6" width="98" height="126"/>
  <object id="158" gid="2147483701" name="rocher_2" x="2019" y="1754.8" width="90" height="88"/>
  <object id="159" gid="44" name="os_1" x="2974" y="1755.6" width="96" height="96"/>
  <object id="160" gid="44" name="os_1" x="386" y="1761.6" width="96" height="96"/>
 </objectgroup>
 <objectgroup id="4" name="collisions">
  <object id="161" x="517.46" y="1124.2" width="110" height="34"/>
  <object id="162" x="2617.16" y="713.56" width="200" height="50"/>
  <object id="163" x="204" y="203" width="26" height="12"/>
  <object id="164" x="1605" y="323" width="26" height="12"/>
  <object id="165" x="1143" y="602" width="26" height="12"/>
  <object id="166" x="1803" y="1546" width="26" height="12"/>
  <object id="167" x="2191" y="945" width="26" height="12"/>
  <object id="168" x="449" y="1489" width="22" height="10"/>
  <object id="169" x="2277" y="1427" width="22" height="10"/>
  <object id="170" x="2381" y="283" width="22" height="10"/>
  <object id="171" x="1787" y="1610" width="22" height="10"/>
  <object id="172" x="1682" y="632" width="22" height="10"/>
  <object id="173" x="2880" y="1445" width="26" height="12"/>
  <object id="174" x="2969" y="987" width="26" height="12"/>
  <object id="175" x="1927" y="1618" width="26" height="12"/>
  <object id="176" x="1561" y="418" width="26" height="12"/>
  <object id="177" x="950" y="414" width="26" height="12"/>
  <object id="178" x="1095" y="1186" width="22" height="10"/>
  <object id="179" x="1588" y="1729" width="22" height="10"/>
  <object id="180" x="1911" y="1493" width="22" height="10"/>
  <object id="181" x="2755" y="1455" width="22" height="10"/>
  <object id="182" x="3075" y="1106" width="22" height="10"/>
  <object id="183" x="521" y="806" width="110" height="18"/>
  <object id="184" x="586" y="312" width="110" height="18"/>
  <object id="185" x="665" y="644" width="110" height="18"/>
  <object id="186" x="2036" y="1419" width="40" height="16"/>
  <object id="187" x="286" y="1176" width="40" height="16"/>
  <object id="188" x="565" y="631" width="40" height="16"/>
  <object id="189" x="573" y="559" width="40" height="16"/>
  <object id="190" x="1382" y="1323" width="120" height="34"/>
  <object id="191" x="2144" y="510" width="120" height="34"/>
  <object id="192" x="58" y="418" width="120" height="30"/>
  <object id="193" x="1328" y="371" width="120" height="30"/>
  <object id="194" x="1245" y="333" width="70" height="22"/>
  <object id="195" x="918" y="1615" width="70" height="22"/>
  <object id="196" x="252" y="804" width="70" height="22"/>
  <object id="197" x="817" y="346" width="60" height="20"/>
  <object id="198" x="129" y="1444" width="60" height="20"/>
  <object id="199" x="3086" y="959" width="60" height="20"/>
  <object id="200" x="256" y="531" width="80" height="30"/>
  <object id="201" x="2109" y="344" width="80" height="30"/>
  <object id="202" x="2599" y="204" width="80" height="30"/>
  <object id="203" x="2350" y="550" width="80" height="30"/>
  <object id="204" x="1987" y="1722" width="64" height="24"/>
  <object id="205" x="679" y="730" width="64" height="24"/>
  <object id="206" x="779" y="1515" width="64" height="24"/>
  <object id="207" x="2323" y="743" width="64" height="24"/>
  <object id="208" x="3054" y="1208" width="46" height="18"/>
  <object id="209" x="2772" y="1365" width="46" height="18"/>
  <object id="210" x="854" y="1674" width="46" height="18"/>
  <object id="211" x="409" y="117" width="46" height="18"/>
  <object id="212" x="1501" y="1622" width="46" height="18"/>
  <object id="213" x="598" y="1303" width="40" height="16"/>
  <object id="214" x="2837" y="418" width="40" height="16"/>
  <object id="215" x="857" y="1203" width="40" height="16"/>
  <object id="216" x="3014" y="764" width="40" height="16"/>
  <object id="217" x="601" y="1606" width="90" height="26"/>
  <object id="218" x="271" y="944" width="90" height="26"/>
  <object id="219" x="836" y="745" width="40" height="16"/>
  <object id="220" x="735" y="470" width="40" height="16"/>
  <object id="221" x="1187" y="677" width="40" height="16"/>
  <object id="222" x="2273" y="428" width="30" height="14"/>
  <object id="223" x="1350" y="232" width="30" height="14"/>
  <object id="224" x="2584" y="1477" width="30" height="14"/>
  <object id="225" x="1050" y="1399" width="30" height="14"/>
 </objectgroup>
</map>
