<?xml version="1.0" encoding="UTF-8"?>
<map version="1.10" tiledversion="1.12.2" orientation="orthogonal" renderorder="right-down" width="68" height="23" tilewidth="32" tileheight="32" infinite="0" nextlayerid="11" nextobjectid="3">
 <editorsettings>
  <export target="map2maestro.json" format="json"/>
 </editorsettings>
 <tileset firstgid="1" name="tileset_maestro" tilewidth="32" tileheight="32" tilecount="960" columns="24">
  <image source="../Downloads/tilesetmap2.png" width="795" height="1304"/>
  <tile id="1">
   <properties>
    <property name="estSolide" type="bool" value="false"/>
   </properties>
  </tile>
  <tile id="2">
   <properties>
    <property name="estSolide" type="bool" value="false"/>
   </properties>
  </tile>
  <tile id="3">
   <properties>
    <property name="estSolide" type="bool" value="false"/>
   </properties>
  </tile>
  <tile id="4">
   <properties>
    <property name="estSolide" type="bool" value="false"/>
   </properties>
  </tile>
  <tile id="5">
   <properties>
    <property name="estSolide" type="bool" value="false"/>
   </properties>
  </tile>
  <tile id="6">
   <properties>
    <property name="estSolide" type="bool" value="false"/>
   </properties>
  </tile>
  <tile id="7">
   <properties>
    <property name="estSolide" type="bool" value="false"/>
   </properties>
  </tile>
  <tile id="8">
   <properties>
    <property name="estSolide" type="bool" value="false"/>
   </properties>
  </tile>
  <tile id="25">
   <properties>
    <property name="estSolide" type="bool" value="true"/>
   </properties>
  </tile>
  <tile id="26">
   <properties>
    <property name="estSolide" type="bool" value="true"/>
   </properties>
  </tile>
  <tile id="27">
   <properties>
    <property name="estSolide" type="bool" value="true"/>
   </properties>
  </tile>
  <tile id="28">
   <properties>
    <property name="estSolide" type="bool" value="true"/>
   </properties>
  </tile>
  <tile id="29">
   <properties>
    <property name="estSolide" type="bool" value="true"/>
   </properties>
  </tile>
  <tile id="30">
   <properties>
    <property name="estSolide" type="bool" value="true"/>
   </properties>
  </tile>
  <tile id="31">
   <properties>
    <property name="estSolide" type="bool" value="true"/>
   </properties>
  </tile>
  <tile id="32">
   <properties>
    <property name="estSolide" type="bool" value="true"/>
   </properties>
  </tile>
  <tile id="33">
   <properties>
    <property name="estSolide" type="bool" value="true"/>
   </properties>
  </tile>
  <tile id="41">
   <properties>
    <property name="estSolide" type="bool" value="false"/>
   </properties>
  </tile>
  <tile id="42">
   <properties>
    <property name="estSolide" type="bool" value="false"/>
   </properties>
  </tile>
  <tile id="43">
   <properties>
    <property name="estSolide" type="bool" value="false"/>
   </properties>
  </tile>
  <tile id="44">
   <properties>
    <property name="estSolide" type="bool" value="false"/>
   </properties>
  </tile>
  <tile id="45">
   <properties>
    <property name="estSolide" type="bool" value="false"/>
   </properties>
  </tile>
  <tile id="46">
   <properties>
    <property name="estSolide" type="bool" value="false"/>
   </properties>
  </tile>
  <tile id="47">
   <properties>
    <property name="estSolide" type="bool" value="false"/>
   </properties>
  </tile>
  <tile id="49">
   <properties>
    <property name="estSolide" type="bool" value="true"/>
   </properties>
  </tile>
  <tile id="50">
   <properties>
    <property name="estSolide" type="bool" value="true"/>
   </properties>
  </tile>
  <tile id="51">
   <properties>
    <property name="estSolide" type="bool" value="true"/>
   </properties>
  </tile>
  <tile id="52">
   <properties>
    <property name="estSolide" type="bool" value="true"/>
   </properties>
  </tile>
  <tile id="53">
   <properties>
    <property name="estSolide" type="bool" value="true"/>
   </properties>
  </tile>
  <tile id="54">
   <properties>
    <property name="estSolide" type="bool" value="true"/>
   </properties>
  </tile>
  <tile id="55">
   <properties>
    <property name="estSolide" type="bool" value="true"/>
   </properties>
  </tile>
  <tile id="56">
   <properties>
    <property name="estSolide" type="bool" value="true"/>
   </properties>
  </tile>
  <tile id="57">
   <properties>
    <property name="estSolide" type="bool" value="false"/>
   </properties>
  </tile>
  <tile id="65">
   <properties>
    <property name="estSolide" type="bool" value="false"/>
   </properties>
  </tile>
  <tile id="66">
   <properties>
    <property name="estSolide" type="bool" value="false"/>
   </properties>
  </tile>
  <tile id="67">
   <properties>
    <property name="estSolide" type="bool" value="false"/>
   </properties>
  </tile>
  <tile id="68">
   <properties>
    <property name="estSolide" type="bool" value="false"/>
   </properties>
  </tile>
  <tile id="69">
   <properties>
    <property name="estSolide" type="bool" value="false"/>
   </properties>
  </tile>
  <tile id="70">
   <properties>
    <property name="estSolide" type="bool" value="false"/>
   </properties>
  </tile>
  <tile id="71">
   <properties>
    <property name="estSolide" type="bool" value="false"/>
   </properties>
  </tile>
  <tile id="74">
   <properties>
    <property name="estSolide" type="bool" value="false"/>
   </properties>
  </tile>
  <tile id="89">
   <properties>
    <property name="estSolide" type="bool" value="false"/>
   </properties>
  </tile>
  <tile id="90">
   <properties>
    <property name="estSolide" type="bool" value="false"/>
   </properties>
  </tile>
  <tile id="91">
   <properties>
    <property name="estSolide" type="bool" value="false"/>
   </properties>
  </tile>
  <tile id="92">
   <properties>
    <property name="estSolide" type="bool" value="false"/>
   </properties>
  </tile>
  <tile id="94">
   <properties>
    <property name="estSolide" type="bool" value="false"/>
   </properties>
  </tile>
  <tile id="95">
   <properties>
    <property name="estSolide" type="bool" value="false"/>
   </properties>
  </tile>
  <tile id="113">
   <properties>
    <property name="estSolide" type="bool" value="false"/>
   </properties>
  </tile>
  <tile id="114">
   <properties>
    <property name="estSolide" type="bool" value="false"/>
   </properties>
  </tile>
  <tile id="115">
   <properties>
    <property name="estSolide" type="bool" value="false"/>
   </properties>
  </tile>
  <tile id="116">
   <properties>
    <property name="estSolide" type="bool" value="false"/>
   </properties>
  </tile>
  <tile id="137">
   <properties>
    <property name="estSolide" type="bool" value="false"/>
   </properties>
  </tile>
  <tile id="138">
   <properties>
    <property name="estSolide" type="bool" value="false"/>
   </properties>
  </tile>
  <tile id="139">
   <properties>
    <property name="estSolide" type="bool" value="false"/>
   </properties>
  </tile>
  <tile id="140">
   <properties>
    <property name="estSolide" type="bool" value="false"/>
   </properties>
  </tile>
  <tile id="161">
   <properties>
    <property name="estSolide" type="bool" value="false"/>
   </properties>
  </tile>
  <tile id="162">
   <properties>
    <property name="estSolide" type="bool" value="false"/>
   </properties>
  </tile>
  <tile id="163">
   <properties>
    <property name="estSolide" type="bool" value="false"/>
   </properties>
  </tile>
  <tile id="164">
   <properties>
    <property name="estSolide" type="bool" value="false"/>
   </properties>
  </tile>
  <tile id="173">
   <properties>
    <property name="estSolide" type="bool" value="true"/>
   </properties>
  </tile>
  <tile id="174">
   <properties>
    <property name="estSolide" type="bool" value="true"/>
   </properties>
  </tile>
  <tile id="175">
   <properties>
    <property name="estSolide" type="bool" value="true"/>
   </properties>
  </tile>
  <tile id="176">
   <properties>
    <property name="estSolide" type="bool" value="true"/>
   </properties>
  </tile>
  <tile id="177">
   <properties>
    <property name="estSolide" type="bool" value="true"/>
   </properties>
  </tile>
  <tile id="178">
   <properties>
    <property name="estSolide" type="bool" value="false"/>
   </properties>
  </tile>
  <tile id="184">
   <properties>
    <property name="estSolide" type="bool" value="false"/>
   </properties>
  </tile>
  <tile id="185">
   <properties>
    <property name="estSolide" type="bool" value="false"/>
   </properties>
  </tile>
  <tile id="186">
   <properties>
    <property name="estSolide" type="bool" value="false"/>
   </properties>
  </tile>
  <tile id="187">
   <properties>
    <property name="estSolide" type="bool" value="false"/>
   </properties>
  </tile>
  <tile id="188">
   <properties>
    <property name="estSolide" type="bool" value="false"/>
   </properties>
  </tile>
  <tile id="197">
   <properties>
    <property name="estSolide" type="bool" value="true"/>
   </properties>
  </tile>
  <tile id="198">
   <properties>
    <property name="estSolide" type="bool" value="true"/>
   </properties>
  </tile>
  <tile id="199">
   <properties>
    <property name="estSolide" type="bool" value="true"/>
   </properties>
  </tile>
  <tile id="200">
   <properties>
    <property name="estSolide" type="bool" value="true"/>
   </properties>
  </tile>
  <tile id="201">
   <properties>
    <property name="estSolide" type="bool" value="true"/>
   </properties>
  </tile>
  <tile id="202">
   <properties>
    <property name="estSolide" type="bool" value="false"/>
   </properties>
  </tile>
  <tile id="208">
   <properties>
    <property name="estSolide" type="bool" value="false"/>
   </properties>
  </tile>
  <tile id="209">
   <properties>
    <property name="estSolide" type="bool" value="false"/>
   </properties>
  </tile>
  <tile id="210">
   <properties>
    <property name="estSolide" type="bool" value="false"/>
   </properties>
  </tile>
  <tile id="211">
   <properties>
    <property name="estSolide" type="bool" value="false"/>
   </properties>
  </tile>
  <tile id="212">
   <properties>
    <property name="estSolide" type="bool" value="false"/>
   </properties>
  </tile>
  <tile id="221">
   <properties>
    <property name="estSolide" type="bool" value="false"/>
   </properties>
  </tile>
  <tile id="231">
   <properties>
    <property name="estSolide" type="bool" value="false"/>
   </properties>
  </tile>
  <tile id="232">
   <properties>
    <property name="estSolide" type="bool" value="false"/>
   </properties>
  </tile>
  <tile id="233">
   <properties>
    <property name="estSolide" type="bool" value="false"/>
   </properties>
  </tile>
  <tile id="236">
   <properties>
    <property name="estSolide" type="bool" value="false"/>
   </properties>
  </tile>
  <tile id="253">
   <properties>
    <property name="estSolide" type="bool" value="false"/>
   </properties>
  </tile>
  <tile id="254">
   <properties>
    <property name="estSolide" type="bool" value="false"/>
   </properties>
  </tile>
  <tile id="255">
   <properties>
    <property name="estSolide" type="bool" value="false"/>
   </properties>
  </tile>
  <tile id="256">
   <properties>
    <property name="estSolide" type="bool" value="false"/>
   </properties>
  </tile>
  <tile id="257">
   <properties>
    <property name="estSolide" type="bool" value="false"/>
   </properties>
  </tile>
  <tile id="260">
   <properties>
    <property name="estSolide" type="bool" value="false"/>
   </properties>
  </tile>
  <tile id="277">
   <properties>
    <property name="estSolide" type="bool" value="false"/>
   </properties>
  </tile>
  <tile id="278">
   <properties>
    <property name="estSolide" type="bool" value="false"/>
   </properties>
  </tile>
  <tile id="279">
   <properties>
    <property name="estSolide" type="bool" value="false"/>
   </properties>
  </tile>
  <tile id="280">
   <properties>
    <property name="estSolide" type="bool" value="false"/>
   </properties>
  </tile>
  <tile id="281">
   <properties>
    <property name="estSolide" type="bool" value="false"/>
   </properties>
  </tile>
  <tile id="284">
   <properties>
    <property name="estSolide" type="bool" value="false"/>
   </properties>
  </tile>
  <tile id="301">
   <properties>
    <property name="estSolide" type="bool" value="false"/>
   </properties>
  </tile>
  <tile id="302">
   <properties>
    <property name="estSolide" type="bool" value="false"/>
   </properties>
  </tile>
  <tile id="303">
   <properties>
    <property name="estSolide" type="bool" value="false"/>
   </properties>
  </tile>
  <tile id="304">
   <properties>
    <property name="estSolide" type="bool" value="false"/>
   </properties>
  </tile>
  <tile id="305">
   <properties>
    <property name="estSolide" type="bool" value="false"/>
   </properties>
  </tile>
  <tile id="308">
   <properties>
    <property name="estSolide" type="bool" value="false"/>
   </properties>
  </tile>
  <tile id="309">
   <properties>
    <property name="estSolide" type="bool" value="false"/>
   </properties>
  </tile>
  <tile id="310">
   <properties>
    <property name="estSolide" type="bool" value="false"/>
   </properties>
  </tile>
  <tile id="311">
   <properties>
    <property name="estSolide" type="bool" value="false"/>
   </properties>
  </tile>
  <tile id="315">
   <properties>
    <property name="estSolide" type="bool" value="false"/>
   </properties>
  </tile>
  <tile id="316">
   <properties>
    <property name="estSolide" type="bool" value="false"/>
   </properties>
  </tile>
  <tile id="317">
   <properties>
    <property name="estSolide" type="bool" value="false"/>
   </properties>
  </tile>
  <tile id="318">
   <properties>
    <property name="estSolide" type="bool" value="false"/>
   </properties>
  </tile>
  <tile id="319">
   <properties>
    <property name="estSolide" type="bool" value="false"/>
   </properties>
  </tile>
  <tile id="320">
   <properties>
    <property name="estSolide" type="bool" value="false"/>
   </properties>
  </tile>
  <tile id="321">
   <properties>
    <property name="estSolide" type="bool" value="false"/>
   </properties>
  </tile>
  <tile id="325">
   <properties>
    <property name="estSolide" type="bool" value="false"/>
   </properties>
  </tile>
  <tile id="326">
   <properties>
    <property name="estSolide" type="bool" value="false"/>
   </properties>
  </tile>
  <tile id="327">
   <properties>
    <property name="estSolide" type="bool" value="false"/>
   </properties>
  </tile>
  <tile id="328">
   <properties>
    <property name="estSolide" type="bool" value="false"/>
   </properties>
  </tile>
  <tile id="329">
   <properties>
    <property name="estSolide" type="bool" value="false"/>
   </properties>
  </tile>
  <tile id="332">
   <properties>
    <property name="estSolide" type="bool" value="false"/>
   </properties>
  </tile>
  <tile id="333">
   <properties>
    <property name="estSolide" type="bool" value="false"/>
   </properties>
  </tile>
  <tile id="334">
   <properties>
    <property name="estSolide" type="bool" value="false"/>
   </properties>
  </tile>
  <tile id="335">
   <properties>
    <property name="estSolide" type="bool" value="false"/>
   </properties>
  </tile>
  <tile id="337">
   <properties>
    <property name="estEchelle" type="bool" value="true"/>
    <property name="estSolide" type="bool" value="false"/>
   </properties>
  </tile>
  <tile id="338">
   <properties>
    <property name="estEchelle" type="bool" value="true"/>
    <property name="estSolide" type="bool" value="false"/>
   </properties>
  </tile>
  <tile id="339">
   <properties>
    <property name="estSolide" type="bool" value="false"/>
   </properties>
  </tile>
  <tile id="340">
   <properties>
    <property name="estSolide" type="bool" value="false"/>
   </properties>
  </tile>
  <tile id="341">
   <properties>
    <property name="estSolide" type="bool" value="false"/>
   </properties>
  </tile>
  <tile id="342">
   <properties>
    <property name="estSolide" type="bool" value="false"/>
   </properties>
  </tile>
  <tile id="343">
   <properties>
    <property name="estSolide" type="bool" value="false"/>
   </properties>
  </tile>
  <tile id="344">
   <properties>
    <property name="estSolide" type="bool" value="false"/>
   </properties>
  </tile>
  <tile id="345">
   <properties>
    <property name="estSolide" type="bool" value="false"/>
   </properties>
  </tile>
  <tile id="349">
   <properties>
    <property name="estSolide" type="bool" value="false"/>
   </properties>
  </tile>
  <tile id="350">
   <properties>
    <property name="estSolide" type="bool" value="false"/>
   </properties>
  </tile>
  <tile id="351">
   <properties>
    <property name="estSolide" type="bool" value="false"/>
   </properties>
  </tile>
  <tile id="352">
   <properties>
    <property name="estSolide" type="bool" value="false"/>
   </properties>
  </tile>
  <tile id="353">
   <properties>
    <property name="estSolide" type="bool" value="false"/>
   </properties>
  </tile>
  <tile id="356">
   <properties>
    <property name="estSolide" type="bool" value="false"/>
   </properties>
  </tile>
  <tile id="357">
   <properties>
    <property name="estSolide" type="bool" value="false"/>
   </properties>
  </tile>
  <tile id="358">
   <properties>
    <property name="estSolide" type="bool" value="false"/>
   </properties>
  </tile>
  <tile id="359">
   <properties>
    <property name="estSolide" type="bool" value="false"/>
   </properties>
  </tile>
  <tile id="361">
   <properties>
    <property name="estEchelle" type="bool" value="true"/>
    <property name="estSolide" type="bool" value="false"/>
   </properties>
  </tile>
  <tile id="362">
   <properties>
    <property name="estEchelle" type="bool" value="true"/>
    <property name="estSolide" type="bool" value="false"/>
   </properties>
  </tile>
  <tile id="363">
   <properties>
    <property name="estSolide" type="bool" value="false"/>
   </properties>
  </tile>
  <tile id="364">
   <properties>
    <property name="estSolide" type="bool" value="false"/>
   </properties>
  </tile>
  <tile id="365">
   <properties>
    <property name="estSolide" type="bool" value="false"/>
   </properties>
  </tile>
  <tile id="366">
   <properties>
    <property name="estSolide" type="bool" value="false"/>
   </properties>
  </tile>
  <tile id="367">
   <properties>
    <property name="estSolide" type="bool" value="false"/>
   </properties>
  </tile>
  <tile id="368">
   <properties>
    <property name="estSolide" type="bool" value="false"/>
   </properties>
  </tile>
  <tile id="369">
   <properties>
    <property name="estSolide" type="bool" value="false"/>
   </properties>
  </tile>
  <tile id="373">
   <properties>
    <property name="estSolide" type="bool" value="false"/>
   </properties>
  </tile>
  <tile id="374">
   <properties>
    <property name="estSolide" type="bool" value="false"/>
   </properties>
  </tile>
  <tile id="375">
   <properties>
    <property name="estSolide" type="bool" value="false"/>
   </properties>
  </tile>
  <tile id="376">
   <properties>
    <property name="estSolide" type="bool" value="false"/>
   </properties>
  </tile>
  <tile id="377">
   <properties>
    <property name="estSolide" type="bool" value="false"/>
   </properties>
  </tile>
  <tile id="382">
   <properties>
    <property name="estSolide" type="bool" value="false"/>
   </properties>
  </tile>
  <tile id="383">
   <properties>
    <property name="estSolide" type="bool" value="false"/>
   </properties>
  </tile>
  <tile id="385">
   <properties>
    <property name="estEchelle" type="bool" value="true"/>
    <property name="estSolide" type="bool" value="false"/>
   </properties>
  </tile>
  <tile id="386">
   <properties>
    <property name="estEchelle" type="bool" value="true"/>
    <property name="estSolide" type="bool" value="false"/>
   </properties>
  </tile>
  <tile id="387">
   <properties>
    <property name="estSolide" type="bool" value="false"/>
   </properties>
  </tile>
  <tile id="388">
   <properties>
    <property name="estSolide" type="bool" value="false"/>
   </properties>
  </tile>
  <tile id="389">
   <properties>
    <property name="estSolide" type="bool" value="false"/>
   </properties>
  </tile>
  <tile id="390">
   <properties>
    <property name="estSolide" type="bool" value="false"/>
   </properties>
  </tile>
  <tile id="391">
   <properties>
    <property name="estSolide" type="bool" value="false"/>
   </properties>
  </tile>
  <tile id="392">
   <properties>
    <property name="estSolide" type="bool" value="false"/>
   </properties>
  </tile>
  <tile id="393">
   <properties>
    <property name="estSolide" type="bool" value="false"/>
   </properties>
  </tile>
  <tile id="398">
   <properties>
    <property name="estSolide" type="bool" value="false"/>
   </properties>
  </tile>
  <tile id="399">
   <properties>
    <property name="estSolide" type="bool" value="false"/>
   </properties>
  </tile>
  <tile id="406">
   <properties>
    <property name="estSolide" type="bool" value="false"/>
   </properties>
  </tile>
  <tile id="407">
   <properties>
    <property name="estSolide" type="bool" value="false"/>
   </properties>
  </tile>
  <tile id="409">
   <properties>
    <property name="estEchelle" type="bool" value="true"/>
    <property name="estSolide" type="bool" value="false"/>
   </properties>
  </tile>
  <tile id="410">
   <properties>
    <property name="estEchelle" type="bool" value="true"/>
    <property name="estSolide" type="bool" value="false"/>
   </properties>
  </tile>
  <tile id="411">
   <properties>
    <property name="estSolide" type="bool" value="false"/>
   </properties>
  </tile>
  <tile id="412">
   <properties>
    <property name="estSolide" type="bool" value="false"/>
   </properties>
  </tile>
  <tile id="413">
   <properties>
    <property name="estSolide" type="bool" value="false"/>
   </properties>
  </tile>
  <tile id="414">
   <properties>
    <property name="estSolide" type="bool" value="false"/>
   </properties>
  </tile>
  <tile id="415">
   <properties>
    <property name="estSolide" type="bool" value="false"/>
   </properties>
  </tile>
  <tile id="416">
   <properties>
    <property name="estSolide" type="bool" value="false"/>
   </properties>
  </tile>
  <tile id="417">
   <properties>
    <property name="estSolide" type="bool" value="false"/>
   </properties>
  </tile>
  <tile id="421">
   <properties>
    <property name="estSolide" type="bool" value="false"/>
   </properties>
  </tile>
  <tile id="422">
   <properties>
    <property name="estSolide" type="bool" value="false"/>
   </properties>
  </tile>
  <tile id="423">
   <properties>
    <property name="estSolide" type="bool" value="false"/>
   </properties>
  </tile>
  <tile id="424">
   <properties>
    <property name="estSolide" type="bool" value="false"/>
   </properties>
  </tile>
  <tile id="433">
   <properties>
    <property name="estEchelle" type="bool" value="true"/>
    <property name="estSolide" type="bool" value="false"/>
   </properties>
  </tile>
  <tile id="434">
   <properties>
    <property name="estEchelle" type="bool" value="true"/>
    <property name="estSolide" type="bool" value="false"/>
   </properties>
  </tile>
  <tile id="435">
   <properties>
    <property name="estSolide" type="bool" value="false"/>
   </properties>
  </tile>
  <tile id="436">
   <properties>
    <property name="estSolide" type="bool" value="false"/>
   </properties>
  </tile>
  <tile id="437">
   <properties>
    <property name="estSolide" type="bool" value="false"/>
   </properties>
  </tile>
  <tile id="439">
   <properties>
    <property name="estSolide" type="bool" value="false"/>
   </properties>
  </tile>
  <tile id="440">
   <properties>
    <property name="estSolide" type="bool" value="false"/>
   </properties>
  </tile>
  <tile id="441">
   <properties>
    <property name="estSolide" type="bool" value="false"/>
   </properties>
  </tile>
  <tile id="445">
   <properties>
    <property name="estSolide" type="bool" value="false"/>
   </properties>
  </tile>
  <tile id="446">
   <properties>
    <property name="estSolide" type="bool" value="false"/>
   </properties>
  </tile>
  <tile id="447">
   <properties>
    <property name="estSolide" type="bool" value="false"/>
   </properties>
  </tile>
  <tile id="448">
   <properties>
    <property name="estSolide" type="bool" value="false"/>
   </properties>
  </tile>
  <tile id="457">
   <properties>
    <property name="estEchelle" type="bool" value="true"/>
    <property name="estSolide" type="bool" value="false"/>
   </properties>
  </tile>
  <tile id="458">
   <properties>
    <property name="estEchelle" type="bool" value="true"/>
    <property name="estSolide" type="bool" value="false"/>
   </properties>
  </tile>
  <tile id="459">
   <properties>
    <property name="estSolide" type="bool" value="false"/>
   </properties>
  </tile>
  <tile id="460">
   <properties>
    <property name="estSolide" type="bool" value="false"/>
   </properties>
  </tile>
  <tile id="463">
   <properties>
    <property name="estSolide" type="bool" value="false"/>
   </properties>
  </tile>
  <tile id="464">
   <properties>
    <property name="estSolide" type="bool" value="false"/>
   </properties>
  </tile>
  <tile id="465">
   <properties>
    <property name="estSolide" type="bool" value="false"/>
   </properties>
  </tile>
  <tile id="469">
   <properties>
    <property name="estSolide" type="bool" value="false"/>
   </properties>
  </tile>
  <tile id="470">
   <properties>
    <property name="estSolide" type="bool" value="false"/>
   </properties>
  </tile>
  <tile id="471">
   <properties>
    <property name="estSolide" type="bool" value="false"/>
   </properties>
  </tile>
  <tile id="472">
   <properties>
    <property name="estSolide" type="bool" value="false"/>
   </properties>
  </tile>
  <tile id="481">
   <properties>
    <property name="estEchelle" type="bool" value="true"/>
    <property name="estSolide" type="bool" value="false"/>
   </properties>
  </tile>
  <tile id="482">
   <properties>
    <property name="estEchelle" type="bool" value="true"/>
    <property name="estSolide" type="bool" value="false"/>
   </properties>
  </tile>
  <tile id="483">
   <properties>
    <property name="estSolide" type="bool" value="false"/>
   </properties>
  </tile>
  <tile id="484">
   <properties>
    <property name="estSolide" type="bool" value="false"/>
   </properties>
  </tile>
  <tile id="487">
   <properties>
    <property name="estSolide" type="bool" value="false"/>
   </properties>
  </tile>
  <tile id="488">
   <properties>
    <property name="estSolide" type="bool" value="false"/>
   </properties>
  </tile>
  <tile id="489">
   <properties>
    <property name="estSolide" type="bool" value="false"/>
   </properties>
  </tile>
  <tile id="493">
   <properties>
    <property name="estSolide" type="bool" value="false"/>
   </properties>
  </tile>
  <tile id="494">
   <properties>
    <property name="estSolide" type="bool" value="false"/>
   </properties>
  </tile>
  <tile id="495">
   <properties>
    <property name="estSolide" type="bool" value="false"/>
   </properties>
  </tile>
  <tile id="496">
   <properties>
    <property name="estSolide" type="bool" value="false"/>
   </properties>
  </tile>
  <tile id="505">
   <properties>
    <property name="estEchelle" type="bool" value="true"/>
    <property name="estSolide" type="bool" value="false"/>
   </properties>
  </tile>
  <tile id="506">
   <properties>
    <property name="estEchelle" type="bool" value="true"/>
    <property name="estSolide" type="bool" value="false"/>
   </properties>
  </tile>
  <tile id="507">
   <properties>
    <property name="estSolide" type="bool" value="false"/>
   </properties>
  </tile>
  <tile id="508">
   <properties>
    <property name="estSolide" type="bool" value="false"/>
   </properties>
  </tile>
  <tile id="512">
   <properties>
    <property name="estSolide" type="bool" value="false"/>
   </properties>
  </tile>
  <tile id="513">
   <properties>
    <property name="estSolide" type="bool" value="false"/>
   </properties>
  </tile>
  <tile id="589">
   <properties>
    <property name="estSolide" type="bool" value="false"/>
   </properties>
  </tile>
  <tile id="590">
   <properties>
    <property name="estSolide" type="bool" value="false"/>
   </properties>
  </tile>
  <tile id="591">
   <properties>
    <property name="estSolide" type="bool" value="false"/>
   </properties>
  </tile>
  <tile id="592">
   <properties>
    <property name="estSolide" type="bool" value="false"/>
   </properties>
  </tile>
  <tile id="593">
   <properties>
    <property name="estSolide" type="bool" value="false"/>
   </properties>
  </tile>
  <tile id="594">
   <properties>
    <property name="estSolide" type="bool" value="false"/>
   </properties>
  </tile>
  <tile id="595">
   <properties>
    <property name="estSolide" type="bool" value="false"/>
   </properties>
  </tile>
  <tile id="613">
   <properties>
    <property name="estSolide" type="bool" value="false"/>
   </properties>
  </tile>
  <tile id="614">
   <properties>
    <property name="estSolide" type="bool" value="false"/>
   </properties>
  </tile>
  <tile id="615">
   <properties>
    <property name="estSolide" type="bool" value="false"/>
   </properties>
  </tile>
  <tile id="616">
   <properties>
    <property name="estSolide" type="bool" value="false"/>
   </properties>
  </tile>
  <tile id="617">
   <properties>
    <property name="estSolide" type="bool" value="false"/>
   </properties>
  </tile>
  <tile id="618">
   <properties>
    <property name="estSolide" type="bool" value="false"/>
   </properties>
  </tile>
  <tile id="619">
   <properties>
    <property name="estSolide" type="bool" value="false"/>
   </properties>
  </tile>
  <tile id="621">
   <properties>
    <property name="estSolide" type="bool" value="false"/>
   </properties>
  </tile>
  <tile id="622">
   <properties>
    <property name="estSolide" type="bool" value="false"/>
   </properties>
  </tile>
  <tile id="623">
   <properties>
    <property name="estSolide" type="bool" value="false"/>
   </properties>
  </tile>
  <tile id="637">
   <properties>
    <property name="estSolide" type="bool" value="false"/>
   </properties>
  </tile>
  <tile id="638">
   <properties>
    <property name="estSolide" type="bool" value="false"/>
   </properties>
  </tile>
  <tile id="639">
   <properties>
    <property name="estSolide" type="bool" value="false"/>
   </properties>
  </tile>
  <tile id="640">
   <properties>
    <property name="estSolide" type="bool" value="false"/>
   </properties>
  </tile>
  <tile id="641">
   <properties>
    <property name="estSolide" type="bool" value="false"/>
   </properties>
  </tile>
  <tile id="642">
   <properties>
    <property name="estSolide" type="bool" value="false"/>
   </properties>
  </tile>
  <tile id="643">
   <properties>
    <property name="estSolide" type="bool" value="false"/>
   </properties>
  </tile>
  <tile id="645">
   <properties>
    <property name="estSolide" type="bool" value="false"/>
   </properties>
  </tile>
  <tile id="646">
   <properties>
    <property name="estSolide" type="bool" value="false"/>
   </properties>
  </tile>
  <tile id="647">
   <properties>
    <property name="estSolide" type="bool" value="false"/>
   </properties>
  </tile>
  <tile id="661">
   <properties>
    <property name="estSolide" type="bool" value="false"/>
   </properties>
  </tile>
  <tile id="662">
   <properties>
    <property name="estSolide" type="bool" value="false"/>
   </properties>
  </tile>
  <tile id="663">
   <properties>
    <property name="estSolide" type="bool" value="false"/>
   </properties>
  </tile>
  <tile id="664">
   <properties>
    <property name="estSolide" type="bool" value="false"/>
   </properties>
  </tile>
  <tile id="665">
   <properties>
    <property name="estSolide" type="bool" value="false"/>
   </properties>
  </tile>
  <tile id="666">
   <properties>
    <property name="estSolide" type="bool" value="false"/>
   </properties>
  </tile>
  <tile id="667">
   <properties>
    <property name="estSolide" type="bool" value="false"/>
   </properties>
  </tile>
  <tile id="669">
   <properties>
    <property name="estSolide" type="bool" value="false"/>
   </properties>
  </tile>
  <tile id="670">
   <properties>
    <property name="estSolide" type="bool" value="false"/>
   </properties>
  </tile>
  <tile id="671">
   <properties>
    <property name="estSolide" type="bool" value="false"/>
   </properties>
  </tile>
  <tile id="673">
   <properties>
    <property name="estSolide" type="bool" value="false"/>
   </properties>
  </tile>
  <tile id="674">
   <properties>
    <property name="estSolide" type="bool" value="false"/>
   </properties>
  </tile>
  <tile id="675">
   <properties>
    <property name="estSolide" type="bool" value="false"/>
   </properties>
  </tile>
  <tile id="676">
   <properties>
    <property name="estSolide" type="bool" value="false"/>
   </properties>
  </tile>
  <tile id="677">
   <properties>
    <property name="estSolide" type="bool" value="false"/>
   </properties>
  </tile>
  <tile id="685">
   <properties>
    <property name="estSolide" type="bool" value="false"/>
   </properties>
  </tile>
  <tile id="686">
   <properties>
    <property name="estSolide" type="bool" value="false"/>
   </properties>
  </tile>
  <tile id="687">
   <properties>
    <property name="estSolide" type="bool" value="false"/>
   </properties>
  </tile>
  <tile id="688">
   <properties>
    <property name="estSolide" type="bool" value="false"/>
   </properties>
  </tile>
  <tile id="689">
   <properties>
    <property name="estSolide" type="bool" value="false"/>
   </properties>
  </tile>
  <tile id="690">
   <properties>
    <property name="estSolide" type="bool" value="false"/>
   </properties>
  </tile>
  <tile id="691">
   <properties>
    <property name="estSolide" type="bool" value="false"/>
   </properties>
  </tile>
  <tile id="693">
   <properties>
    <property name="estSolide" type="bool" value="false"/>
   </properties>
  </tile>
  <tile id="694">
   <properties>
    <property name="estSolide" type="bool" value="false"/>
   </properties>
  </tile>
  <tile id="695">
   <properties>
    <property name="estSolide" type="bool" value="false"/>
   </properties>
  </tile>
  <tile id="697">
   <properties>
    <property name="estSolide" type="bool" value="false"/>
   </properties>
  </tile>
  <tile id="698">
   <properties>
    <property name="estSolide" type="bool" value="false"/>
   </properties>
  </tile>
  <tile id="699">
   <properties>
    <property name="estSolide" type="bool" value="false"/>
   </properties>
  </tile>
  <tile id="700">
   <properties>
    <property name="estSolide" type="bool" value="false"/>
   </properties>
  </tile>
  <tile id="701">
   <properties>
    <property name="estSolide" type="bool" value="false"/>
   </properties>
  </tile>
  <tile id="709">
   <properties>
    <property name="estSolide" type="bool" value="false"/>
   </properties>
  </tile>
  <tile id="710">
   <properties>
    <property name="estSolide" type="bool" value="false"/>
   </properties>
  </tile>
  <tile id="711">
   <properties>
    <property name="estSolide" type="bool" value="false"/>
   </properties>
  </tile>
  <tile id="712">
   <properties>
    <property name="estSolide" type="bool" value="false"/>
   </properties>
  </tile>
  <tile id="713">
   <properties>
    <property name="estSolide" type="bool" value="false"/>
   </properties>
  </tile>
  <tile id="714">
   <properties>
    <property name="estSolide" type="bool" value="false"/>
   </properties>
  </tile>
  <tile id="715">
   <properties>
    <property name="estSolide" type="bool" value="false"/>
   </properties>
  </tile>
  <tile id="717">
   <properties>
    <property name="estSolide" type="bool" value="false"/>
   </properties>
  </tile>
  <tile id="718">
   <properties>
    <property name="estSolide" type="bool" value="false"/>
   </properties>
  </tile>
  <tile id="719">
   <properties>
    <property name="estSolide" type="bool" value="false"/>
   </properties>
  </tile>
  <tile id="724">
   <properties>
    <property name="estSolide" type="bool" value="false"/>
   </properties>
  </tile>
  <tile id="725">
   <properties>
    <property name="estSolide" type="bool" value="false"/>
   </properties>
  </tile>
  <tile id="730">
   <properties>
    <property name="estSolide" type="bool" value="false"/>
   </properties>
  </tile>
  <tile id="754">
   <properties>
    <property name="estSolide" type="bool" value="false"/>
   </properties>
  </tile>
  <tile id="755">
   <properties>
    <property name="estSolide" type="bool" value="false"/>
   </properties>
  </tile>
  <tile id="756">
   <properties>
    <property name="estSolide" type="bool" value="false"/>
   </properties>
  </tile>
  <tile id="779">
   <properties>
    <property name="estSolide" type="bool" value="false"/>
   </properties>
  </tile>
  <tile id="780">
   <properties>
    <property name="estSolide" type="bool" value="false"/>
   </properties>
  </tile>
  <tile id="781">
   <properties>
    <property name="estSolide" type="bool" value="false"/>
   </properties>
  </tile>
  <tile id="803">
   <properties>
    <property name="estSolide" type="bool" value="false"/>
   </properties>
  </tile>
  <tile id="804">
   <properties>
    <property name="estSolide" type="bool" value="false"/>
   </properties>
  </tile>
  <tile id="805">
   <properties>
    <property name="estSolide" type="bool" value="false"/>
   </properties>
  </tile>
  <tile id="816">
   <properties>
    <property name="estSolide" type="bool" value="false"/>
   </properties>
  </tile>
  <tile id="817">
   <properties>
    <property name="estSolide" type="bool" value="false"/>
   </properties>
  </tile>
  <tile id="818">
   <properties>
    <property name="estSolide" type="bool" value="false"/>
   </properties>
  </tile>
  <tile id="819">
   <properties>
    <property name="estSolide" type="bool" value="false"/>
   </properties>
  </tile>
  <tile id="820">
   <properties>
    <property name="estSolide" type="bool" value="false"/>
   </properties>
  </tile>
  <tile id="821">
   <properties>
    <property name="estSolide" type="bool" value="false"/>
   </properties>
  </tile>
  <tile id="827">
   <properties>
    <property name="estSolide" type="bool" value="false"/>
   </properties>
  </tile>
  <tile id="828">
   <properties>
    <property name="estSolide" type="bool" value="false"/>
   </properties>
  </tile>
  <tile id="829">
   <properties>
    <property name="estSolide" type="bool" value="false"/>
   </properties>
  </tile>
  <tile id="830">
   <properties>
    <property name="estSolide" type="bool" value="false"/>
   </properties>
  </tile>
  <tile id="840">
   <properties>
    <property name="estSolide" type="bool" value="false"/>
   </properties>
  </tile>
  <tile id="841">
   <properties>
    <property name="estSolide" type="bool" value="false"/>
   </properties>
  </tile>
  <tile id="842">
   <properties>
    <property name="estSolide" type="bool" value="false"/>
   </properties>
  </tile>
  <tile id="843">
   <properties>
    <property name="estSolide" type="bool" value="false"/>
   </properties>
  </tile>
  <tile id="844">
   <properties>
    <property name="estSolide" type="bool" value="false"/>
   </properties>
  </tile>
  <tile id="845">
   <properties>
    <property name="estSolide" type="bool" value="false"/>
   </properties>
  </tile>
  <tile id="851">
   <properties>
    <property name="estSolide" type="bool" value="false"/>
   </properties>
  </tile>
  <tile id="852">
   <properties>
    <property name="estSolide" type="bool" value="false"/>
   </properties>
  </tile>
  <tile id="853">
   <properties>
    <property name="estSolide" type="bool" value="false"/>
   </properties>
  </tile>
  <tile id="854">
   <properties>
    <property name="estSolide" type="bool" value="false"/>
   </properties>
  </tile>
  <tile id="864">
   <properties>
    <property name="estSolide" type="bool" value="false"/>
   </properties>
  </tile>
  <tile id="865">
   <properties>
    <property name="estSolide" type="bool" value="false"/>
   </properties>
  </tile>
  <tile id="866">
   <properties>
    <property name="estSolide" type="bool" value="false"/>
   </properties>
  </tile>
  <tile id="867">
   <properties>
    <property name="estSolide" type="bool" value="false"/>
   </properties>
  </tile>
  <tile id="870">
   <properties>
    <property name="estSolide" type="bool" value="false"/>
   </properties>
  </tile>
  <tile id="871">
   <properties>
    <property name="estSolide" type="bool" value="false"/>
   </properties>
  </tile>
  <tile id="872">
   <properties>
    <property name="estSolide" type="bool" value="false"/>
   </properties>
  </tile>
  <tile id="873">
   <properties>
    <property name="estSolide" type="bool" value="false"/>
   </properties>
  </tile>
  <tile id="884">
   <properties>
    <property name="estSolide" type="bool" value="false"/>
   </properties>
  </tile>
  <tile id="885">
   <properties>
    <property name="estSolide" type="bool" value="false"/>
   </properties>
  </tile>
  <tile id="886">
   <properties>
    <property name="estSolide" type="bool" value="false"/>
   </properties>
  </tile>
  <tile id="888">
   <properties>
    <property name="estSolide" type="bool" value="false"/>
   </properties>
  </tile>
  <tile id="889">
   <properties>
    <property name="estSolide" type="bool" value="false"/>
   </properties>
  </tile>
  <tile id="890">
   <properties>
    <property name="estSolide" type="bool" value="false"/>
   </properties>
  </tile>
  <tile id="891">
   <properties>
    <property name="estSolide" type="bool" value="false"/>
   </properties>
  </tile>
  <tile id="894">
   <properties>
    <property name="estSolide" type="bool" value="false"/>
   </properties>
  </tile>
  <tile id="895">
   <properties>
    <property name="estSolide" type="bool" value="false"/>
   </properties>
  </tile>
  <tile id="896">
   <properties>
    <property name="estSolide" type="bool" value="false"/>
   </properties>
  </tile>
  <tile id="897">
   <properties>
    <property name="estSolide" type="bool" value="false"/>
   </properties>
  </tile>
  <tile id="898">
   <properties>
    <property name="estSolide" type="bool" value="false"/>
   </properties>
  </tile>
  <tile id="905">
   <properties>
    <property name="estSolide" type="bool" value="false"/>
   </properties>
  </tile>
  <tile id="906">
   <properties>
    <property name="estSolide" type="bool" value="false"/>
   </properties>
  </tile>
  <tile id="907">
   <properties>
    <property name="estSolide" type="bool" value="false"/>
   </properties>
  </tile>
  <tile id="908">
   <properties>
    <property name="estSolide" type="bool" value="false"/>
   </properties>
  </tile>
  <tile id="909">
   <properties>
    <property name="estSolide" type="bool" value="false"/>
   </properties>
  </tile>
  <tile id="910">
   <properties>
    <property name="estSolide" type="bool" value="false"/>
   </properties>
  </tile>
  <tile id="919">
   <properties>
    <property name="estSolide" type="bool" value="false"/>
   </properties>
  </tile>
  <tile id="920">
   <properties>
    <property name="estSolide" type="bool" value="false"/>
   </properties>
  </tile>
  <tile id="921">
   <properties>
    <property name="estSolide" type="bool" value="false"/>
   </properties>
  </tile>
  <tile id="922">
   <properties>
    <property name="estSolide" type="bool" value="false"/>
   </properties>
  </tile>
  <tile id="929">
   <properties>
    <property name="estSolide" type="bool" value="false"/>
   </properties>
  </tile>
  <tile id="930">
   <properties>
    <property name="estSolide" type="bool" value="false"/>
   </properties>
  </tile>
  <tile id="931">
   <properties>
    <property name="estSolide" type="bool" value="false"/>
   </properties>
  </tile>
  <tile id="932">
   <properties>
    <property name="estSolide" type="bool" value="false"/>
   </properties>
  </tile>
  <tile id="933">
   <properties>
    <property name="estSolide" type="bool" value="false"/>
   </properties>
  </tile>
  <tile id="952">
   <properties>
    <property name="estSolide" type="bool" value="true"/>
   </properties>
  </tile>
  <tile id="953">
   <properties>
    <property name="estSolide" type="bool" value="false"/>
   </properties>
  </tile>
  <tile id="954">
   <properties>
    <property name="estSolide" type="bool" value="false"/>
   </properties>
  </tile>
  <tile id="955">
   <properties>
    <property name="estSolide" type="bool" value="false"/>
   </properties>
  </tile>
  <tile id="956">
   <properties>
    <property name="estSolide" type="bool" value="false"/>
   </properties>
  </tile>
  <tile id="957">
   <properties>
    <property name="estSolide" type="bool" value="false"/>
   </properties>
  </tile>
 </tileset>
 <imagelayer id="2" name="Calque d'Images 1">
  <image source="map2_sombre.png" width="2172" height="724"/>
 </imagelayer>
 <layer id="3" name="calque_background" width="68" height="23">
  <data encoding="csv">
0,0,0,0,0,0,0,0,0,0,0,0,0,0,0,0,0,0,0,0,0,0,0,0,0,0,0,0,0,0,0,0,0,0,0,0,0,0,0,0,0,0,0,0,0,0,0,0,0,0,0,0,0,0,0,0,0,0,0,0,0,0,0,0,0,0,0,0,
0,0,0,0,0,0,0,0,0,0,0,0,0,0,0,0,0,0,0,0,0,0,0,0,0,0,0,0,0,0,0,0,0,0,0,0,0,0,0,0,0,0,0,0,0,0,0,0,0,0,0,0,0,0,316,317,318,319,320,321,322,0,0,0,0,0,0,0,
0,0,0,0,0,0,0,0,0,0,0,0,0,0,0,0,0,0,0,0,0,0,0,0,0,0,0,0,0,0,0,0,0,0,0,0,0,0,0,0,0,0,0,0,0,0,0,0,0,0,0,0,0,0,340,341,342,343,344,345,346,0,0,0,0,0,0,0,
0,0,0,0,0,0,0,0,0,0,0,0,0,0,0,0,0,0,0,0,0,0,0,0,0,0,0,0,0,0,0,0,0,0,0,0,0,0,0,0,0,0,0,0,0,0,0,0,0,0,0,0,0,0,364,365,366,367,368,369,370,0,0,0,0,0,0,0,
0,0,0,0,0,0,0,0,0,0,0,0,0,0,0,0,0,0,0,0,0,0,0,0,0,0,0,0,0,0,0,0,0,0,0,0,0,0,0,0,0,0,0,0,0,0,0,0,0,0,0,0,0,0,388,389,390,391,392,393,394,0,0,0,0,0,0,0,
0,0,0,0,0,0,0,0,0,0,0,0,0,0,0,0,0,0,0,0,0,0,0,0,0,0,0,0,0,0,0,0,0,0,0,0,0,0,0,0,0,0,0,0,0,0,0,0,0,0,0,0,0,0,412,413,414,415,416,417,418,0,0,0,0,0,0,0,
0,0,0,0,0,0,0,0,0,0,0,0,0,0,0,0,0,0,0,0,0,0,0,0,0,0,0,0,0,0,0,0,0,0,0,0,0,0,0,0,0,0,0,0,0,0,0,0,0,0,0,0,0,0,436,437,438,0,440,441,442,0,0,0,0,0,0,0,
0,0,0,0,0,0,0,0,0,0,0,0,0,0,0,0,0,0,0,0,0,0,0,0,0,0,0,0,0,0,0,0,0,0,0,0,0,0,0,0,0,0,0,0,0,0,0,0,0,0,0,0,0,0,460,461,0,0,464,465,466,0,0,0,0,0,0,0,
0,0,0,0,0,0,0,0,0,0,0,0,0,0,0,0,0,0,0,0,0,0,0,0,0,0,0,0,0,0,0,0,0,0,0,0,0,0,0,0,0,0,0,0,0,0,0,0,0,0,0,0,0,0,484,485,0,0,488,489,490,0,0,0,0,0,0,0,
0,0,0,0,0,0,0,0,0,0,0,0,0,0,0,0,0,0,0,0,0,0,0,0,0,0,0,0,0,0,0,0,0,0,0,0,0,0,0,0,0,0,0,0,0,0,0,0,0,0,0,0,0,0,508,509,0,0,0,513,514,0,0,0,0,0,0,0,
0,0,0,0,0,0,0,0,0,0,0,0,0,0,0,0,0,0,0,0,0,0,0,0,0,0,0,0,0,0,0,0,0,0,0,0,0,0,0,0,0,0,0,0,0,0,0,0,0,0,0,0,0,0,0,0,0,0,0,0,0,0,0,0,0,0,0,0,
0,0,0,0,0,0,0,0,0,0,0,0,0,0,0,0,0,0,0,0,0,0,0,0,0,0,0,0,0,0,0,0,0,0,0,0,0,0,0,0,0,0,0,0,0,0,0,0,0,0,0,0,0,185,186,0,0,0,0,0,0,0,0,0,0,0,0,0,
0,0,0,0,0,0,0,0,0,0,0,0,0,0,0,0,0,0,0,0,0,0,0,0,0,0,0,0,0,0,0,0,0,0,0,0,0,0,0,0,0,0,0,0,0,0,0,0,0,0,0,0,0,209,210,0,0,0,0,0,0,0,0,0,0,0,0,0,
0,0,0,0,0,0,0,0,0,0,0,0,0,0,0,0,0,0,0,0,0,0,0,0,0,0,0,0,0,0,0,0,0,0,0,0,0,0,0,0,0,0,0,0,0,0,0,0,0,0,0,0,232,233,234,0,0,0,0,0,0,0,0,0,0,0,0,0,
0,0,0,0,0,0,0,0,0,0,0,0,0,0,0,0,0,0,0,0,0,0,0,0,0,0,0,0,0,0,0,0,0,0,0,0,0,0,0,0,0,0,0,0,0,0,0,0,0,0,0,0,0,257,258,0,0,0,0,0,0,0,0,0,0,0,0,0,
0,0,0,0,0,0,0,0,0,0,0,0,0,0,0,0,0,0,0,0,0,0,0,0,0,0,0,0,0,0,0,0,0,0,0,0,0,0,0,0,0,0,0,0,0,0,0,0,0,0,0,0,280,281,282,0,0,0,0,0,0,0,0,0,0,0,0,0,
0,0,0,0,0,0,0,0,0,0,0,0,0,0,0,0,0,0,0,0,0,0,0,0,0,0,0,0,0,0,0,0,0,0,0,0,0,0,0,0,0,0,0,0,0,0,0,0,0,0,0,0,304,305,306,0,0,0,0,0,0,0,0,0,0,0,0,0,
0,0,0,0,0,0,0,0,0,0,0,0,0,0,0,0,0,0,0,0,0,0,0,0,0,0,0,0,0,0,0,0,0,0,0,0,0,0,0,0,0,0,0,0,0,0,0,0,0,0,0,0,328,329,330,0,0,0,0,0,0,0,0,0,0,0,0,0,
0,0,0,0,0,0,0,0,0,0,0,0,0,0,0,0,0,0,0,0,0,0,0,0,0,0,0,0,0,0,0,0,0,0,0,0,0,0,0,0,0,0,0,0,0,0,0,0,0,0,0,0,352,353,354,0,0,0,0,0,0,0,0,0,0,0,0,0,
0,0,0,0,0,0,0,0,0,0,0,0,0,0,0,0,0,0,0,0,0,0,0,0,0,0,0,0,0,0,0,0,0,0,0,0,0,0,0,0,0,0,0,0,0,0,0,0,0,0,0,0,0,377,378,0,0,0,0,0,0,0,0,0,0,0,0,0,
0,0,0,0,0,0,0,0,0,0,0,0,0,0,0,0,0,0,0,0,0,0,0,0,0,0,0,0,0,0,0,0,0,0,0,0,0,0,0,0,0,0,0,0,0,0,0,0,0,0,0,0,0,0,0,0,0,0,0,0,0,0,0,0,0,0,0,0,
0,0,0,0,0,0,0,0,0,0,0,0,0,0,0,0,0,0,0,0,0,0,0,0,0,0,0,0,0,0,0,0,0,0,0,0,0,0,0,0,0,0,0,0,0,0,0,0,0,0,0,0,0,0,0,0,0,0,0,0,0,0,0,0,0,0,0,0,
0,0,0,0,0,0,0,0,0,0,0,0,0,0,0,0,0,0,0,0,0,0,0,0,0,0,0,0,0,0,0,0,0,0,0,0,0,0,0,0,0,0,0,0,0,0,0,0,0,0,0,0,0,0,0,0,0,0,0,0,0,0,0,0,0,0,0,0
</data>
 </layer>
 <layer id="4" name="calque_background2" width="68" height="23">
  <data encoding="csv">
0,0,0,0,0,0,0,0,254,0,0,0,0,0,0,0,0,255,256,0,0,0,0,0,237,0,0,254,0,0,0,0,0,0,0,0,0,0,0,0,0,0,0,0,0,0,254,0,0,0,255,256,0,0,0,0,0,0,0,0,0,0,0,0,0,0,0,0,
0,0,0,0,0,0,0,0,278,0,0,0,42,43,44,45,0,279,280,0,0,0,0,0,261,0,0,278,0,0,0,0,0,42,43,44,45,0,0,0,0,0,0,0,0,0,278,0,0,0,279,280,0,0,0,0,0,0,0,0,0,0,0,0,0,0,0,0,
0,0,0,0,0,0,0,0,302,0,0,0,66,67,68,69,0,303,304,0,0,0,0,0,285,0,0,302,0,0,0,0,0,66,67,68,69,0,0,0,0,0,0,0,0,0,302,0,0,0,303,304,0,0,0,0,0,0,0,0,0,0,0,0,0,0,0,0,
0,0,0,0,0,0,0,0,326,327,0,0,90,91,92,93,0,0,328,0,0,0,0,0,309,310,0,326,327,0,0,0,0,90,91,92,93,0,0,0,0,0,0,0,0,0,326,327,0,0,0,328,0,0,0,0,0,0,0,0,0,0,0,0,0,0,0,0,
0,0,0,0,0,0,0,0,350,351,0,0,114,115,116,117,0,0,0,0,0,0,0,0,333,334,0,350,351,0,0,0,0,114,115,116,117,0,0,0,0,0,0,0,0,0,350,351,0,0,0,0,0,0,0,0,0,0,0,0,0,0,0,0,0,0,0,0,
0,0,0,0,0,0,0,0,374,0,0,0,138,139,140,141,0,375,376,0,0,0,0,0,357,358,0,374,0,0,0,0,0,138,139,140,141,0,0,0,0,0,0,0,0,0,374,0,0,0,375,376,0,0,0,0,0,0,0,0,0,0,0,0,0,0,0,0,
0,0,0,0,0,0,0,0,0,0,0,0,162,163,164,165,0,0,0,0,0,0,0,0,0,0,0,0,0,0,0,0,0,162,163,164,165,0,0,0,0,0,0,0,0,0,0,0,0,0,0,0,0,0,0,0,0,0,0,0,0,0,0,0,0,0,0,0,
0,0,0,0,0,0,0,0,0,0,0,0,0,187,188,189,0,0,0,0,0,0,0,0,0,0,0,0,0,0,0,0,0,0,187,188,189,0,0,0,0,0,0,0,0,0,0,0,0,0,0,0,0,0,0,0,0,0,0,0,0,0,0,0,0,0,0,0,
0,0,0,0,0,0,0,0,0,0,0,0,0,211,212,213,0,0,0,0,0,0,0,0,0,0,0,0,0,0,0,0,0,0,211,212,213,0,0,0,0,0,0,0,0,0,0,0,0,0,0,0,0,0,0,0,0,0,0,0,0,0,0,0,0,0,0,0,
0,0,0,0,0,0,0,0,0,0,0,0,0,0,731,0,0,0,0,0,0,0,0,0,0,0,0,0,0,0,0,0,0,0,0,0,0,0,0,0,0,0,0,0,0,0,0,0,0,0,0,0,0,0,0,0,0,0,0,0,0,0,0,338,339,0,0,0,
0,0,0,0,0,0,0,0,0,0,0,0,0,0,755,756,757,0,0,0,0,0,0,0,0,0,0,0,0,0,0,0,0,0,0,0,0,0,0,0,0,0,0,0,0,0,0,0,0,0,0,0,0,0,0,0,0,0,0,0,0,0,0,362,363,0,0,0,
0,0,0,0,0,0,0,0,0,0,0,0,0,0,0,780,781,782,0,0,0,0,0,0,0,0,0,0,0,0,0,0,0,0,0,0,0,0,0,0,0,0,0,0,0,0,0,0,0,0,0,0,0,0,0,0,0,0,0,0,0,0,0,386,387,0,0,0,
0,338,339,0,0,0,0,0,0,0,0,0,0,0,0,804,805,806,0,0,0,0,0,0,0,0,0,0,0,0,0,0,0,0,0,0,0,0,0,0,0,0,0,0,0,0,0,0,0,0,0,0,0,0,0,0,0,0,0,0,0,0,0,410,411,0,0,0,
0,362,363,0,0,0,0,0,0,0,0,0,0,0,0,828,829,830,831,0,0,0,0,0,0,0,0,0,0,0,0,0,0,0,0,0,0,0,0,0,0,0,0,0,0,0,0,0,0,0,0,0,0,0,0,0,0,0,0,0,0,0,0,434,435,0,0,0,
0,386,387,0,0,0,0,0,0,0,0,0,0,0,0,852,853,854,855,0,0,0,0,0,0,0,0,0,0,0,0,0,0,0,0,0,0,0,0,0,0,0,0,0,0,0,0,0,0,0,0,0,0,0,0,0,0,0,0,0,0,0,0,458,459,0,0,0,
0,410,411,0,0,0,0,0,0,0,0,0,0,0,0,0,0,0,0,0,0,0,0,0,0,0,0,0,0,0,0,0,0,0,0,0,0,0,0,0,0,0,0,0,0,0,0,0,0,0,0,0,0,0,0,0,0,0,0,0,0,0,0,482,483,0,0,0,
0,434,435,0,0,0,0,0,0,0,0,0,0,0,0,0,0,0,0,0,0,0,0,0,0,0,0,0,0,0,0,0,0,0,0,0,0,0,0,0,0,0,0,0,0,0,0,0,0,0,0,0,0,0,0,0,0,0,0,0,0,0,0,506,507,0,0,0,
0,458,459,0,0,0,0,0,0,0,0,0,0,0,0,0,0,0,0,0,0,0,0,0,0,0,0,0,0,0,0,0,0,0,0,0,0,0,0,0,0,0,0,0,0,0,0,0,0,0,0,0,0,0,0,0,0,0,0,0,0,0,0,0,0,0,0,0,
0,482,483,0,0,0,0,0,0,0,0,0,0,0,0,0,0,0,0,0,0,0,0,0,0,0,0,0,0,0,0,0,0,0,0,0,0,0,0,0,0,0,0,0,0,0,0,0,0,0,0,0,0,0,0,0,0,0,0,0,0,0,0,0,0,0,0,0,
0,506,507,0,0,0,0,0,0,0,0,0,0,0,0,0,0,0,0,0,0,0,0,0,0,0,0,0,0,0,0,0,0,0,0,0,0,0,0,0,0,0,0,0,0,0,0,0,0,0,0,0,0,0,0,0,0,0,0,0,0,0,0,0,0,0,0,0,
0,0,0,0,0,0,0,0,0,0,0,0,0,0,0,0,0,0,0,0,0,0,0,0,0,0,0,0,0,0,0,0,0,0,0,0,0,0,0,0,0,0,0,0,0,0,0,0,0,0,0,0,0,0,0,0,0,0,0,0,0,0,0,0,0,0,0,0,
0,0,0,0,0,0,0,0,0,0,0,0,0,0,0,0,0,0,0,0,0,0,0,0,0,0,0,0,0,0,0,0,0,0,0,0,0,0,0,0,0,0,0,0,0,0,0,0,0,0,0,0,0,0,0,0,0,0,0,0,0,0,0,0,0,0,0,0,
0,0,0,0,0,0,0,0,0,0,0,0,0,0,0,0,0,0,0,0,0,0,0,0,0,0,0,0,0,0,0,0,0,0,0,0,0,0,0,0,0,0,0,0,0,0,0,0,0,0,0,0,0,0,0,0,0,0,0,0,0,0,0,0,0,0,0,0
</data>
 </layer>
 <layer id="5" name="calque_background2_bis" width="68" height="23">
  <data encoding="csv">
0,0,0,0,0,0,0,0,0,0,0,0,0,0,0,0,0,0,0,0,0,0,0,0,0,0,0,0,0,0,0,0,0,0,0,0,0,0,0,0,0,0,0,0,0,0,0,0,0,0,0,0,0,0,0,0,0,0,0,0,0,0,0,0,0,0,0,0,
0,0,0,0,0,0,0,0,0,0,0,0,0,0,0,0,0,0,0,0,0,0,0,0,0,0,0,0,0,0,0,0,0,0,0,0,0,0,0,0,0,0,0,0,0,0,0,0,0,42,43,44,45,0,0,0,0,0,0,0,0,0,0,0,0,0,0,0,
0,0,0,0,0,0,0,0,0,0,0,0,0,0,0,0,0,0,0,0,0,0,0,0,0,0,0,0,0,0,0,0,0,0,0,0,0,0,0,0,0,0,0,0,0,0,0,0,0,66,67,68,69,0,0,0,0,0,0,0,0,0,0,0,0,0,0,0,
0,0,0,0,0,0,0,0,0,0,0,0,0,0,0,0,0,0,0,0,0,0,0,0,0,0,0,0,0,0,0,0,0,0,0,0,0,0,0,0,0,0,0,0,0,0,0,0,0,90,91,92,93,0,0,0,0,0,0,0,0,0,0,0,0,0,0,0,
0,0,0,0,0,0,0,0,0,0,0,0,0,0,0,0,0,0,0,0,0,0,0,0,0,0,0,0,0,0,0,0,0,0,0,0,0,0,0,0,0,0,0,0,0,0,0,0,0,114,115,116,117,0,0,0,0,0,0,0,0,0,0,0,0,0,0,0,
0,0,0,0,0,0,0,0,0,0,0,0,0,0,0,0,0,0,0,0,0,0,0,0,0,0,0,0,0,0,0,0,0,0,0,0,0,0,0,0,0,0,0,0,0,0,0,0,0,138,139,140,141,0,0,0,0,0,0,0,0,0,0,0,0,0,0,0,
0,0,0,0,0,0,0,0,0,0,0,0,0,0,0,0,0,0,0,0,0,0,0,0,0,0,0,0,0,0,0,0,0,0,0,0,0,0,0,0,0,0,0,0,0,0,0,0,0,162,163,164,165,0,0,0,0,0,0,0,0,0,0,0,0,0,0,0,
0,0,0,0,0,0,0,0,0,0,0,0,0,0,0,0,0,0,0,0,0,0,0,0,0,0,0,0,0,0,0,0,0,0,0,0,0,0,0,0,0,0,0,0,0,0,0,0,0,0,187,188,189,0,0,0,0,0,0,0,0,0,0,0,0,0,0,0,
0,0,0,0,0,0,0,0,0,0,0,0,0,0,0,0,0,0,0,0,0,0,0,0,0,0,0,0,0,0,0,0,0,0,0,0,0,0,0,0,0,0,0,0,0,0,0,0,0,0,211,212,213,0,0,0,0,0,0,0,0,0,0,0,0,0,0,0,
0,0,0,0,0,0,0,0,0,0,0,0,0,0,0,0,0,0,0,0,0,0,0,0,0,0,0,0,0,0,0,0,0,0,0,0,0,0,0,0,0,0,0,0,0,0,0,0,0,0,0,0,0,0,0,0,0,0,0,0,0,0,0,0,0,0,0,0,
0,0,0,0,0,0,0,0,0,0,0,0,0,0,0,0,0,0,0,0,0,0,0,0,0,0,0,0,0,0,0,0,0,0,0,0,0,0,0,0,0,0,0,0,0,0,0,0,0,0,0,0,0,0,0,0,0,0,0,0,0,0,0,0,0,0,0,0,
0,0,0,0,0,0,0,0,0,0,0,0,0,0,0,0,0,0,0,0,0,0,0,0,0,0,0,0,0,0,0,0,0,0,0,0,0,0,0,0,0,0,0,0,0,0,0,0,0,0,0,0,0,0,0,0,0,0,0,0,0,0,0,0,0,0,0,0,
0,0,0,0,0,0,0,0,0,0,0,0,0,0,0,0,0,0,0,0,0,0,0,0,0,0,0,0,0,0,0,0,0,0,0,0,0,0,0,0,0,0,0,0,0,0,0,0,0,0,0,0,0,0,0,0,0,0,0,0,0,0,0,0,0,0,0,0,
0,0,0,0,0,0,0,0,0,0,0,0,0,0,0,0,0,0,0,0,0,0,0,0,0,0,0,0,0,0,0,0,0,0,0,0,0,0,0,0,0,0,0,0,0,0,0,0,0,0,0,0,0,0,0,0,0,0,0,0,0,0,0,0,0,0,0,0,
0,0,0,0,0,0,0,0,0,0,0,0,0,0,0,0,0,0,0,0,0,0,0,0,0,0,0,0,0,0,0,0,0,0,0,0,0,0,0,0,0,0,0,0,0,0,0,0,0,0,0,0,0,0,0,0,0,0,0,0,0,0,0,0,0,0,0,0,
0,0,0,0,0,0,0,0,0,0,0,0,0,0,0,0,0,0,0,0,0,0,0,0,0,0,0,0,0,0,0,0,0,0,0,0,0,0,0,0,0,0,0,0,0,0,0,0,0,0,0,0,0,0,0,0,0,0,0,0,0,0,0,0,0,0,0,0,
0,0,0,0,0,0,0,0,0,0,0,0,0,0,0,0,0,0,0,0,0,0,0,0,0,0,0,0,0,0,0,0,0,0,0,0,0,0,0,0,0,0,0,0,0,0,0,0,0,0,0,0,0,0,0,0,0,0,0,0,0,0,0,0,0,0,0,0,
0,0,0,0,0,0,0,0,0,0,0,0,0,0,0,0,0,0,0,0,0,0,0,0,0,0,0,0,0,0,0,0,0,0,0,0,0,0,0,0,0,0,0,0,0,0,0,0,0,0,0,0,0,0,0,0,0,0,0,0,0,0,0,0,0,0,0,0,
0,0,0,0,0,0,0,0,0,0,0,0,0,0,0,0,0,0,0,0,0,0,0,0,0,0,0,0,0,0,0,0,0,0,0,0,0,0,0,0,0,0,0,0,0,0,0,0,0,0,0,0,0,0,0,0,0,0,0,0,0,0,0,0,0,0,0,0,
0,0,0,0,0,0,0,0,0,0,0,0,0,0,0,0,0,0,0,0,0,0,0,0,0,0,0,0,0,0,0,0,0,0,0,0,0,0,0,0,0,0,0,0,0,0,0,0,0,0,0,0,0,0,0,0,0,0,0,0,0,0,0,0,0,0,0,0,
0,0,0,0,0,0,0,0,0,0,0,0,0,0,0,0,0,0,0,0,0,0,0,0,0,0,0,0,0,0,0,0,0,0,0,0,0,0,0,0,0,0,0,0,0,0,0,0,0,0,0,0,0,0,0,0,0,0,0,0,0,0,0,0,0,0,0,0,
0,0,0,0,0,0,0,0,0,0,0,0,0,0,0,0,0,0,0,0,0,0,0,0,0,0,0,0,0,0,0,0,0,0,0,0,0,0,0,0,0,0,0,0,0,0,0,0,0,0,0,0,0,0,0,0,0,0,0,0,0,0,0,0,0,0,0,0,
0,0,0,0,0,0,0,0,0,0,0,0,0,0,0,0,0,0,0,0,0,0,0,0,0,0,0,0,0,0,0,0,0,0,0,0,0,0,0,0,0,0,0,0,0,0,0,0,0,0,0,0,0,0,0,0,0,0,0,0,0,0,0,0,0,0,0,0
</data>
 </layer>
 <layer id="6" name="Calque_deco" width="68" height="23">
  <data encoding="csv">
0,0,0,0,0,0,0,0,0,0,0,0,0,0,0,0,0,0,0,0,0,0,0,0,0,0,0,0,0,0,0,0,0,0,0,0,0,0,0,0,0,0,0,0,0,0,0,0,0,0,0,0,0,0,0,0,0,0,0,0,0,0,0,0,0,0,0,0,
0,0,0,0,0,0,0,0,0,0,0,0,0,0,0,0,0,0,0,0,0,0,0,0,0,0,0,0,0,0,0,0,0,0,0,0,0,0,0,0,0,0,0,0,0,0,0,0,0,0,0,0,0,0,0,0,0,0,0,0,0,0,0,0,0,0,0,0,
0,0,0,0,0,0,0,0,0,0,0,0,0,0,0,0,0,0,0,0,0,0,0,0,0,0,0,0,0,0,0,0,0,0,0,0,0,0,0,0,0,0,0,0,0,0,0,0,0,0,0,0,0,0,0,0,0,0,0,0,0,0,0,0,0,0,0,0,
0,0,0,0,0,0,0,0,0,0,0,0,0,0,0,0,0,0,0,0,0,0,0,0,0,0,0,0,0,0,0,0,0,0,0,0,0,0,0,0,0,0,0,0,0,0,0,0,0,0,0,0,0,0,0,0,0,0,0,0,0,0,0,0,0,0,0,0,
0,0,0,0,0,0,0,0,0,0,0,0,0,0,0,0,0,0,0,0,0,0,0,0,0,0,0,0,0,0,0,0,0,0,0,0,0,0,0,0,0,0,0,0,0,0,0,0,0,0,0,0,0,0,0,0,0,0,0,0,0,0,0,0,0,0,0,0,
0,0,0,0,0,0,0,0,0,399,400,0,0,0,0,0,0,0,0,0,0,0,0,0,0,0,0,0,0,0,311,312,0,0,0,0,0,0,0,46,47,48,0,0,0,0,0,0,0,0,0,0,0,0,0,0,0,0,0,0,0,0,0,0,0,0,0,0,
0,0,0,0,0,0,0,0,422,423,424,425,0,0,0,0,0,0,0,0,0,46,47,48,0,0,0,0,0,0,335,336,0,0,0,0,0,0,0,70,71,72,0,0,0,0,0,0,0,0,0,0,0,0,0,0,0,0,0,0,0,0,0,0,0,0,0,0,
0,0,0,0,0,0,0,0,446,447,448,449,0,0,0,0,0,0,0,0,0,70,71,72,0,0,0,0,0,0,359,360,0,0,0,0,0,0,0,0,95,96,0,0,0,0,0,677,678,0,0,0,0,0,0,0,0,0,0,0,0,0,0,0,0,0,0,0,
0,0,0,0,0,0,0,0,470,471,472,473,0,0,0,0,0,0,0,0,0,0,95,96,0,0,0,0,0,0,383,384,0,0,0,0,0,0,0,0,0,0,0,179,0,0,0,701,702,0,0,0,0,2,3,4,5,6,7,8,9,0,0,0,0,0,0,0,
0,0,0,0,0,874,0,0,494,495,496,497,0,0,0,0,0,0,0,0,0,0,0,0,0,179,0,0,0,0,407,408,0,0,179,0,0,0,0,0,0,0,0,203,0,0,0,725,726,0,0,179,0,0,0,0,0,0,0,0,0,0,0,0,0,0,0,0,
0,0,0,0,897,898,899,0,0,0,0,0,0,0,0,0,0,0,0,0,0,0,0,0,0,203,0,0,0,0,0,0,0,0,203,0,0,0,222,311,312,0,0,0,0,0,0,0,0,0,0,203,0,0,0,0,0,0,0,0,0,58,0,0,0,0,0,0,
0,0,0,0,921,922,923,0,0,0,0,0,0,0,0,0,0,0,0,0,222,0,0,885,886,887,0,0,0,222,0,0,0,0,0,0,0,0,0,335,336,0,0,0,0,0,222,0,0,0,0,0,0,0,75,0,0,0,0,0,0,0,0,0,0,0,0,0,
0,0,0,0,0,0,0,0,179,0,0,0,0,0,0,0,0,0,0,0,46,47,48,909,910,911,0,0,0,0,0,0,0,0,0,0,0,0,0,359,360,0,0,0,0,0,0,0,0,0,0,0,0,0,0,0,0,0,0,0,0,0,0,0,0,0,0,0,
0,0,0,0,0,0,0,0,203,0,0,0,0,0,0,0,0,0,0,0,70,71,72,933,934,0,0,0,0,0,0,0,0,0,0,0,0,0,0,383,384,0,0,0,0,0,0,0,0,0,0,0,0,0,0,0,0,0,0,0,0,0,0,885,886,887,0,0,
0,0,0,222,0,0,0,0,0,0,0,0,0,0,0,0,0,0,0,0,0,95,96,957,958,0,0,0,0,0,0,0,0,0,0,0,0,0,0,407,408,0,0,179,0,0,0,46,47,48,0,0,0,0,0,0,0,0,874,0,0,0,0,909,910,911,0,0,
0,0,0,0,0,0,0,0,0,0,865,866,867,868,0,0,0,0,0,0,0,0,0,0,0,179,0,0,817,818,819,820,821,822,0,0,0,0,0,0,0,0,0,203,0,0,0,70,71,72,0,0,0,0,0,0,0,897,898,899,0,0,0,933,934,0,0,0,
0,0,0,0,0,0,0,0,0,0,889,890,891,892,0,0,0,0,0,0,0,0,0,0,0,203,0,0,841,842,843,844,845,846,0,0,0,0,222,0,0,0,0,0,0,0,0,0,95,96,0,0,0,0,0,0,0,921,922,923,0,0,0,957,958,0,0,0,
0,0,0,0,0,0,0,0,0,0,0,0,0,0,0,0,0,0,0,0,222,0,0,0,0,0,0,0,0,0,0,0,0,0,179,0,0,0,0,0,0,0,0,0,0,0,0,0,0,0,0,179,0,0,0,0,0,0,0,0,0,0,0,0,0,0,0,0,
0,0,0,0,0,0,0,0,0,0,0,0,0,0,0,0,0,0,0,0,0,0,0,0,0,0,0,0,0,0,0,0,0,0,203,0,0,0,0,0,0,0,0,0,0,0,0,0,0,0,0,203,0,0,0,0,0,0,0,0,0,0,0,0,0,0,0,0,
0,2,3,4,5,6,7,8,9,0,2,3,4,5,6,7,8,9,0,2,3,4,5,6,7,8,9,0,0,222,0,0,0,0,0,0,0,0,0,0,0,0,0,0,0,0,222,0,0,0,0,0,0,2,3,4,5,6,7,8,9,0,2,3,4,5,6,7,
0,0,0,0,0,0,0,0,0,0,0,0,0,0,0,0,0,0,0,0,0,0,0,0,0,0,0,0,0,0,0,0,0,0,0,0,0,0,0,0,0,0,0,0,0,0,0,0,0,0,0,0,0,0,0,0,0,0,0,0,0,0,0,0,0,0,0,0,
0,0,0,0,0,0,0,0,0,58,0,0,0,0,0,0,0,0,58,0,0,0,0,0,0,0,0,58,0,0,0,0,0,0,0,0,0,0,0,0,0,0,0,0,0,0,0,0,0,0,0,0,0,0,0,0,0,0,0,0,0,58,0,0,0,0,0,0,
0,0,75,0,0,0,0,0,0,0,0,75,0,0,0,0,0,0,0,0,75,0,0,0,0,0,0,0,0,0,0,0,0,0,0,0,0,0,0,0,0,0,0,0,0,0,0,0,0,0,0,0,0,0,75,0,0,0,0,0,0,0,0,75,0,0,0,0
</data>
 </layer>
 <layer id="7" name="Calque_deco_bis" width="68" height="23">
  <data encoding="csv">
0,0,0,0,0,0,0,0,0,0,0,0,0,0,0,0,0,0,0,0,0,0,0,0,0,0,0,0,0,0,0,0,0,0,0,0,0,0,0,0,0,0,0,0,0,0,0,0,0,0,0,0,0,0,0,0,0,0,0,0,0,0,0,0,0,0,0,0,
0,0,0,0,0,0,0,0,0,0,0,0,0,0,0,0,0,0,0,0,0,0,0,0,0,0,0,0,0,0,0,0,0,0,0,0,0,0,0,0,0,0,0,0,0,0,0,0,0,0,0,0,0,0,0,0,0,0,0,0,0,0,0,0,0,0,0,0,
0,0,0,0,0,0,0,0,0,0,0,0,0,0,0,0,0,0,0,0,0,0,0,0,0,0,0,0,0,0,0,0,0,0,0,0,0,0,0,0,0,0,0,0,0,0,0,0,0,0,0,0,0,0,0,0,0,0,0,0,0,0,0,0,0,0,0,0,
0,0,0,0,0,0,0,0,0,0,0,0,0,0,0,0,0,0,0,0,0,0,0,0,0,0,0,0,0,0,0,0,0,0,0,0,0,0,0,0,0,0,0,0,0,0,0,0,0,0,0,0,0,0,0,0,0,0,0,0,0,0,0,0,0,0,0,0,
0,0,0,0,0,0,0,0,0,0,0,0,0,0,0,0,0,0,0,0,0,0,0,0,0,0,0,0,0,0,0,0,0,0,0,0,0,0,0,0,0,0,0,0,0,0,0,0,0,0,0,0,0,0,0,0,0,0,0,0,0,0,0,0,0,0,0,0,
0,0,0,0,0,0,0,0,0,0,0,0,0,0,0,0,0,0,0,0,0,0,0,0,0,0,0,0,0,0,0,0,0,0,0,0,0,0,0,0,0,0,0,0,0,0,0,0,0,0,0,0,0,0,0,0,0,0,0,0,0,0,0,0,0,0,0,0,
0,0,0,0,0,0,0,0,0,0,0,0,0,0,0,0,0,0,0,0,0,0,0,0,0,0,0,0,0,0,0,0,0,0,0,0,0,0,0,0,0,0,0,0,0,0,0,0,0,0,0,0,0,0,0,0,0,0,0,0,0,0,0,0,0,0,0,0,
0,0,0,0,0,0,0,0,0,0,0,0,0,0,0,0,0,0,0,0,0,0,0,0,0,0,0,0,0,0,0,0,0,0,0,0,0,0,0,0,0,0,0,0,0,0,0,0,0,0,0,0,674,675,676,0,0,0,0,0,0,0,0,0,0,0,0,0,
0,0,0,0,0,0,0,0,0,0,0,0,0,0,0,0,0,0,0,0,0,0,0,0,0,0,0,0,0,0,0,0,0,0,0,0,0,0,0,0,0,0,0,0,0,0,0,0,0,0,0,0,698,699,700,0,0,0,0,0,0,0,0,0,0,0,0,0,
0,0,0,0,0,0,0,0,0,0,0,0,0,0,0,0,0,0,0,0,0,0,0,0,0,0,0,0,0,0,0,0,0,0,0,0,0,0,0,0,0,0,0,0,0,0,0,0,0,0,0,0,0,0,0,0,0,0,0,0,0,0,0,0,0,0,0,0,
0,0,0,0,0,0,0,0,0,0,0,0,0,179,0,0,0,0,0,0,0,0,0,0,0,0,0,0,0,0,0,0,0,0,0,0,0,0,0,0,0,0,0,0,0,0,0,0,0,0,0,0,0,0,0,0,0,0,0,0,0,0,0,0,0,0,0,0,
0,0,0,0,0,0,0,0,0,0,0,0,0,203,0,0,0,0,0,0,0,0,0,0,0,0,0,0,0,0,0,0,0,0,0,0,0,0,0,0,0,0,0,0,0,0,0,0,0,0,0,0,0,0,0,0,0,0,0,0,0,0,0,0,0,0,0,0,
0,0,0,0,0,0,0,0,222,0,0,0,0,0,0,0,0,0,0,0,0,0,0,0,0,0,0,0,0,0,0,0,0,0,0,0,0,0,0,0,0,0,0,0,0,0,0,0,0,0,0,0,0,0,0,0,0,0,0,0,0,0,0,0,0,0,0,0,
0,0,0,0,0,0,0,0,0,0,0,0,0,0,0,0,0,0,0,0,0,0,0,0,0,0,0,0,0,0,0,0,0,0,0,0,0,0,0,0,0,0,0,0,0,0,0,0,0,0,0,0,0,0,0,0,0,0,0,0,0,0,0,0,0,0,0,0,
0,0,0,590,591,592,593,594,595,596,0,0,0,0,0,0,0,0,0,0,0,0,0,0,0,0,0,0,0,0,0,0,0,0,0,0,0,0,0,0,0,0,0,0,0,0,0,0,0,0,0,0,0,0,0,0,0,0,0,0,0,0,0,0,0,0,0,0,
0,0,0,614,615,616,617,618,619,620,0,0,0,871,872,873,0,0,0,0,0,0,0,0,0,0,0,0,0,0,0,0,0,0,0,0,0,0,0,0,0,0,0,0,0,0,0,0,0,0,0,0,0,622,623,624,0,0,0,0,0,0,0,0,0,0,0,0,
0,0,0,638,639,640,641,642,643,644,0,0,0,895,896,0,0,0,0,0,0,0,0,0,0,0,0,0,0,0,0,0,0,0,0,0,0,0,0,0,0,0,0,0,0,0,0,0,0,0,0,0,0,646,647,648,0,2,3,4,5,6,7,8,9,0,0,0,
0,0,0,662,663,664,665,666,667,668,0,0,0,0,920,0,179,0,0,0,0,0,0,0,0,0,0,0,0,0,0,0,0,0,0,0,0,0,0,0,0,0,0,0,0,0,0,0,0,0,0,0,0,670,671,672,0,0,0,0,0,0,0,0,0,0,0,0,
0,0,0,686,687,688,689,690,691,692,0,0,0,0,0,0,203,0,0,0,0,0,0,0,0,0,0,0,0,0,0,0,0,0,0,0,0,0,0,0,0,0,0,0,0,0,0,0,0,0,0,0,0,694,695,696,0,0,0,0,0,0,0,0,0,58,0,0,
0,0,0,710,711,712,713,714,715,716,0,222,0,0,0,0,0,0,0,0,0,0,0,0,0,0,0,0,0,0,0,0,0,0,0,0,0,0,0,0,0,0,0,0,0,0,0,0,0,0,0,0,0,718,719,720,0,0,75,0,0,0,0,0,0,0,0,0,
0,0,0,0,0,0,0,0,0,0,0,0,0,0,0,0,0,0,0,0,0,0,0,0,0,0,0,0,0,0,0,0,0,0,0,0,0,0,0,0,0,0,0,0,0,0,0,0,0,0,0,0,0,0,0,0,0,0,0,0,0,0,0,0,0,0,0,0,
0,0,0,0,0,0,0,0,0,0,0,0,0,0,0,0,0,0,0,0,0,0,0,0,0,0,0,0,0,0,0,0,0,0,0,0,0,0,0,0,0,0,0,0,0,0,0,0,0,0,0,0,0,0,0,0,0,0,0,0,0,0,0,0,0,0,0,0,
0,0,0,0,0,0,0,0,0,0,0,0,0,0,0,0,0,0,0,0,0,0,0,0,0,0,0,0,0,0,0,0,0,0,0,0,0,0,0,0,0,0,0,0,0,0,0,0,0,0,0,0,0,0,0,0,0,0,0,0,0,0,0,0,0,0,0,0
</data>
 </layer>
 <layer id="8" name="Calque_deco_ter" width="68" height="23">
  <data encoding="csv">
0,0,0,0,0,0,0,0,0,0,0,0,0,0,0,0,0,0,0,0,0,0,0,0,0,0,0,0,0,0,0,0,0,0,0,0,0,0,0,0,0,0,0,0,0,0,0,0,0,0,0,0,0,0,0,0,0,0,0,0,0,0,0,0,0,0,0,0,
0,0,0,0,0,0,0,0,0,0,0,0,0,0,0,0,0,0,0,0,0,0,0,0,0,0,0,0,0,0,0,0,0,0,0,0,0,0,0,0,0,0,0,0,0,0,0,0,0,0,0,0,0,0,0,0,0,0,0,0,0,0,0,0,0,0,0,0,
0,0,0,0,0,0,0,0,0,0,0,0,0,0,0,0,0,0,0,0,0,0,0,0,0,0,0,0,0,0,0,0,0,0,0,0,0,0,0,0,0,0,0,0,0,0,0,0,0,0,0,0,0,0,0,0,0,0,0,0,0,0,0,0,0,0,0,0,
0,0,0,0,0,0,0,0,0,0,0,0,0,0,0,0,0,0,0,0,0,0,0,0,0,0,0,0,0,0,0,0,0,0,0,0,0,0,0,0,0,0,0,0,0,0,0,0,0,0,0,0,0,0,0,0,0,0,0,0,0,0,0,0,0,0,0,0,
0,0,0,0,0,0,0,0,0,0,0,0,0,0,0,0,0,0,0,0,0,0,0,0,0,0,0,0,0,0,0,0,0,0,0,0,0,0,0,0,0,0,0,0,0,0,0,0,0,0,0,0,0,0,0,0,0,0,0,0,0,0,0,0,0,0,0,0,
0,0,0,0,0,0,0,0,0,0,0,0,0,0,0,0,0,0,0,0,0,0,0,0,0,0,0,0,0,0,0,0,0,0,0,0,0,0,0,0,0,0,0,0,0,0,0,0,0,0,0,0,0,0,0,0,0,0,0,0,0,0,0,0,0,0,0,0,
0,0,0,0,0,0,0,0,0,0,0,0,0,0,0,0,0,0,0,0,0,0,0,0,0,0,0,0,0,0,0,0,0,0,0,0,0,0,0,0,0,0,0,0,0,0,0,0,0,0,0,0,0,0,0,0,0,0,0,0,0,0,0,0,0,0,0,0,
0,0,0,0,0,0,0,0,0,0,0,0,0,0,0,0,0,0,0,0,0,0,0,0,0,0,0,0,0,0,0,0,0,0,0,0,0,0,0,0,0,0,0,0,0,0,0,0,0,0,0,0,0,0,0,0,0,0,0,0,0,0,0,0,0,0,0,0,
0,0,0,0,0,0,0,0,0,0,0,0,0,0,0,0,0,0,0,0,0,0,0,0,0,0,0,0,0,0,0,0,0,0,0,0,0,0,0,0,0,0,0,0,0,0,0,0,0,0,0,0,0,0,0,0,0,0,0,0,0,0,0,0,0,0,0,0,
0,0,0,0,0,0,0,0,0,0,0,0,0,0,0,0,0,0,0,0,0,0,0,0,0,0,0,0,0,0,0,0,0,0,0,0,0,0,0,0,0,0,0,0,0,0,0,0,0,0,0,0,0,0,0,0,0,0,0,0,0,0,0,0,0,0,0,0,
0,0,0,0,0,0,0,0,0,0,0,0,0,0,0,0,0,0,0,0,0,0,0,0,0,0,0,0,0,0,0,0,0,0,0,0,0,0,0,0,0,0,0,0,0,0,0,0,0,0,0,0,0,0,0,0,0,0,0,0,0,0,0,0,0,0,0,0,
0,0,0,0,0,0,0,0,0,0,0,0,0,0,0,0,0,0,0,0,0,0,0,0,0,0,0,0,0,0,0,0,0,0,0,0,0,0,0,0,0,0,0,0,0,0,0,0,0,0,0,0,0,0,0,0,0,0,0,0,0,0,0,0,0,0,0,0,
0,0,0,0,0,0,0,0,0,0,0,0,0,0,0,0,0,0,0,0,0,0,0,0,0,0,0,0,0,0,0,0,0,0,0,0,0,0,0,0,0,0,0,0,0,0,0,0,0,0,0,0,0,0,0,0,0,0,0,0,0,0,0,0,0,0,0,0,
0,0,0,0,0,0,0,0,0,0,0,0,0,0,0,0,0,0,0,0,0,0,0,0,0,0,0,0,0,0,0,0,0,0,0,0,0,0,0,0,0,0,0,0,0,0,0,0,0,0,0,0,0,0,0,0,0,0,0,0,0,0,0,0,0,0,0,0,
0,0,0,0,0,0,0,0,0,0,0,0,0,0,0,0,0,0,0,0,0,0,0,0,0,0,0,0,0,0,0,0,0,0,0,0,0,0,0,0,0,0,0,0,0,0,0,0,0,0,0,0,0,0,0,0,0,0,0,46,47,48,0,0,0,0,0,0,
0,0,0,0,0,0,0,0,0,0,0,0,0,0,0,0,0,0,0,0,0,0,0,0,0,0,0,0,0,0,0,0,0,0,0,0,0,0,0,0,0,0,0,0,0,0,0,0,0,0,0,0,0,0,0,0,0,0,0,70,71,72,0,0,0,0,0,0,
0,0,0,0,0,0,0,0,0,0,0,0,0,0,0,0,0,0,0,0,0,0,0,0,0,0,0,0,0,0,0,0,0,0,0,0,0,0,0,0,0,0,0,0,0,0,0,0,0,0,0,0,0,0,0,0,0,0,0,0,95,96,0,0,0,0,0,0,
0,0,0,0,0,0,0,0,0,0,0,0,0,0,0,0,0,0,0,0,0,0,0,0,0,0,0,0,0,0,0,0,0,0,0,0,0,0,0,0,0,0,0,0,0,0,0,0,0,0,0,0,0,0,0,0,0,0,0,0,0,0,0,0,0,906,907,908,
0,0,0,0,0,0,0,0,0,0,0,0,0,0,0,0,0,0,0,0,0,0,0,0,0,0,0,0,0,0,0,0,0,0,0,0,0,0,0,0,0,0,0,0,0,0,0,0,0,0,0,0,0,0,0,0,0,0,0,0,0,0,0,0,0,930,931,932,
0,0,0,0,0,0,0,0,0,0,0,0,0,0,0,0,0,0,0,0,0,0,0,0,0,0,0,0,0,0,0,0,0,0,0,0,0,0,0,0,0,0,0,0,0,0,0,0,0,0,0,0,0,0,0,0,0,0,0,0,0,0,0,0,0,954,955,956,
0,0,0,0,0,0,0,0,0,0,0,0,0,0,0,0,0,0,0,0,0,0,0,0,0,0,0,0,0,0,0,0,0,0,0,0,0,0,0,0,0,0,0,0,0,0,0,0,0,0,0,0,0,0,0,0,0,0,0,0,0,0,0,0,0,0,0,0,
0,0,0,0,0,0,0,0,0,0,0,0,0,0,0,0,0,0,0,0,0,0,0,0,0,0,0,0,0,0,0,0,0,0,0,0,0,0,0,0,0,0,0,0,0,0,0,0,0,0,0,0,0,0,0,0,0,0,0,0,0,0,0,0,0,0,0,0,
0,0,0,0,0,0,0,0,0,0,0,0,0,0,0,0,0,0,0,0,0,0,0,0,0,0,0,0,0,0,0,0,0,0,0,0,0,0,0,0,0,0,0,0,0,0,0,0,0,0,0,0,0,0,0,0,0,0,0,0,0,0,0,0,0,0,0,0
</data>
 </layer>
 <layer id="9" name="calque_plateformes" width="68" height="23">
  <data encoding="csv">
0,0,0,0,0,0,0,0,0,0,0,0,0,0,0,0,0,0,0,0,0,0,0,0,0,0,0,0,0,0,0,0,0,0,0,0,0,0,0,0,0,0,0,0,0,0,0,0,0,0,0,0,0,0,0,0,0,0,0,0,0,0,0,0,0,0,0,0,
0,0,0,0,0,0,0,0,0,0,0,0,0,0,0,0,0,0,0,0,0,0,0,0,0,0,0,0,0,0,0,0,0,0,0,0,0,0,0,0,0,0,0,0,0,0,0,0,0,0,0,0,0,0,0,0,0,0,0,0,0,0,0,0,0,0,0,0,
0,0,0,0,0,0,0,0,0,0,0,0,0,0,0,0,0,0,0,0,0,0,0,0,0,0,0,0,0,0,0,0,0,0,0,0,0,0,0,0,0,0,0,0,0,0,0,0,0,0,0,0,0,0,0,0,0,0,0,0,0,0,0,0,0,0,0,0,
0,0,0,0,0,0,0,0,0,0,0,0,0,0,0,0,0,0,0,0,0,0,0,0,0,0,0,0,0,0,0,0,0,0,0,0,0,0,0,0,0,0,0,0,0,0,0,0,0,0,0,0,0,0,0,0,0,0,0,0,0,0,0,0,0,0,0,0,
0,0,0,0,0,0,0,0,0,0,0,0,0,0,0,0,0,0,0,0,0,0,0,0,0,0,0,0,0,0,0,0,0,0,0,0,0,0,0,0,0,0,0,0,0,0,0,0,0,0,0,0,0,0,0,0,0,0,0,0,0,0,0,0,0,0,0,0,
0,0,0,0,0,0,0,0,0,0,0,0,0,0,0,0,0,0,0,0,0,0,0,0,0,0,0,0,0,0,0,0,0,0,0,0,0,0,0,0,0,0,0,0,0,0,0,0,0,0,0,0,0,0,0,0,0,0,0,0,0,0,0,0,0,0,0,0,
0,0,0,0,0,0,0,0,0,0,0,0,0,0,0,0,0,0,0,0,0,0,0,0,0,0,0,0,0,0,0,0,0,0,0,0,0,0,0,0,0,0,0,0,0,0,0,0,0,0,0,0,0,0,0,0,0,0,0,0,0,0,0,0,0,0,0,0,
0,0,0,0,0,0,0,0,0,0,0,0,0,0,0,0,0,0,0,0,0,0,0,0,0,0,0,0,0,0,0,0,0,0,0,0,0,0,0,0,0,0,0,0,0,0,0,0,0,0,0,0,0,0,0,0,0,0,0,0,0,0,0,0,0,0,0,0,
0,0,0,0,0,0,0,0,0,0,0,0,0,0,0,0,0,0,0,0,0,0,0,0,0,0,0,0,0,0,0,0,0,0,0,0,0,0,174,175,176,177,178,0,0,0,0,0,0,0,0,0,0,0,0,0,0,0,0,0,0,0,0,0,0,0,0,0,
0,0,0,0,0,0,0,0,0,0,0,0,0,0,0,0,0,0,0,0,174,175,176,177,178,0,0,0,0,174,175,176,177,178,0,0,0,0,198,199,200,201,202,0,0,0,174,175,176,177,178,0,0,26,27,28,29,30,31,32,33,34,0,0,0,0,0,0,
0,0,0,0,0,0,0,0,174,175,176,177,178,0,953,0,0,0,0,0,198,199,200,201,202,0,0,0,0,198,199,200,201,202,0,0,0,0,0,0,0,0,0,0,0,0,198,199,200,201,202,0,0,50,51,52,53,54,55,56,57,0,0,0,0,0,0,0,
0,0,0,0,0,0,0,0,198,199,200,201,202,0,0,953,0,0,0,0,0,0,0,0,0,0,0,0,0,0,0,0,0,0,0,0,0,0,0,0,0,0,0,0,0,0,0,0,0,0,0,0,0,0,0,0,0,0,0,0,0,0,0,0,0,0,0,0,
0,0,0,174,175,176,177,178,0,0,0,0,0,0,0,0,953,0,0,0,0,0,0,0,0,0,0,0,0,0,0,0,0,0,0,0,0,0,0,0,0,0,0,0,0,0,0,0,0,0,0,0,0,0,0,0,0,0,0,0,0,0,0,0,0,0,0,0,
0,0,0,198,199,200,201,202,0,0,0,0,0,0,0,0,0,953,0,0,0,0,0,0,0,0,0,0,0,0,0,0,0,0,0,0,0,0,0,0,0,0,0,0,0,0,0,0,0,0,0,0,0,0,0,0,0,0,0,0,0,0,0,0,0,0,0,0,
0,0,0,0,0,0,0,0,0,0,0,0,0,0,0,0,0,0,953,0,0,0,0,0,0,0,0,0,0,0,0,0,0,0,0,0,0,0,174,175,176,177,178,0,0,0,0,0,0,0,0,0,0,0,0,0,0,0,0,0,0,0,0,0,0,0,0,0,
0,0,0,0,0,0,0,0,0,0,0,0,0,0,0,0,0,0,0,0,174,175,176,177,178,0,0,0,0,0,0,0,0,0,0,0,0,0,198,199,200,201,202,0,0,0,0,0,0,0,0,0,0,0,0,0,0,0,0,0,0,0,0,0,0,0,0,0,
0,0,0,0,0,0,0,0,0,0,0,0,0,0,0,0,0,0,0,0,198,199,200,201,202,0,0,0,0,0,0,0,0,0,0,0,0,0,0,0,0,0,0,0,0,0,0,0,0,0,0,0,0,0,0,0,0,0,0,0,0,0,0,0,0,0,0,0,
0,0,0,0,0,0,0,0,0,0,0,174,175,176,177,178,0,0,0,0,0,0,0,0,0,0,0,0,0,174,175,176,177,178,0,0,0,0,0,0,0,0,0,0,0,0,174,175,176,177,178,0,0,0,0,0,0,26,27,28,29,30,31,32,33,34,0,0,
0,0,0,0,0,0,0,0,0,0,0,198,199,200,201,202,0,0,0,0,0,0,0,0,0,0,0,0,0,198,199,200,201,202,0,0,0,0,0,0,0,0,0,0,0,0,198,199,200,201,202,0,0,0,0,0,0,50,51,52,53,54,55,56,57,0,0,0,
0,0,0,0,0,0,0,0,0,0,0,0,0,0,0,0,0,0,0,0,0,0,0,0,0,0,0,0,0,0,0,0,0,0,0,0,0,0,0,0,0,0,0,0,0,0,0,0,0,0,0,0,0,0,0,0,0,0,0,0,0,0,0,0,0,0,0,0,
953,26,27,28,29,30,31,32,33,34,26,27,28,29,30,31,32,33,34,26,27,28,29,30,31,32,33,34,0,0,0,0,0,0,0,0,0,0,0,0,0,0,0,0,0,0,0,0,0,0,0,0,0,26,27,28,29,30,31,32,33,34,26,27,28,29,30,31,
0,50,51,52,53,54,55,56,57,0,50,51,52,53,54,55,56,57,0,50,51,52,53,54,55,56,57,0,0,0,0,0,0,0,0,0,0,0,0,0,0,0,0,0,0,0,0,0,0,0,0,0,0,50,51,52,53,54,55,56,57,0,50,51,52,53,54,55,
0,0,0,0,0,0,0,0,0,0,0,0,0,0,0,0,0,0,0,0,0,0,0,0,0,0,0,0,0,0,0,0,0,0,0,0,0,0,0,0,0,0,0,0,0,0,0,0,0,0,0,0,0,0,0,0,0,0,0,0,0,0,0,0,0,0,0,0
</data>
 </layer>
 <objectgroup id="10" name="objets">
  <object id="1" name="arrivee" x="1786" y="148" width="100" height="140"/>
  <object id="2" name="depart" x="128" y="592" width="40" height="48"/>
 </objectgroup>
</map>
